/* XPM */
static char *_a789bc100444387e160f920ca1dcda7hB02Rmq2vk3tBykq[] = {
/* columns rows colors chars-per-pixel */
"64 64 5 1 ",
"  c black",
". c DimGray",
"X c SaddleBrown",
"o c #A37343",
"O c gray72",
/* pixels */
"                                                                ",
"                                                                ",
"                                                                ",
"                                                                ",
"                                                                ",
"                                                                ",
"                                                                ",
"                                                                ",
"                                                                ",
"                                                                ",
"                                                                ",
"                             . ... .                            ",
"                           .... . ....                          ",
"                        ... .... .... ...                       ",
"                       .....         .....                      ",
"                       ....  oXXXoXX  ... .                     ",
"                     .. .  XXoXXXoXXXo   ...                    ",
"                     ... oXXXoXXXoXXXoXX ...                    ",
"                    ... XoXXXoXXXoXXXoXXX ..                    ",
"                    ... XoXXXoXXXoXXXoXXX . .                   ",
"                     . XXoXXXoXXXoXXXoXXXo ..                   ",
"                   ..  XXoXXXoXXXoXXXoXXXo ...                  ",
"                   .. XXXoXXXoXXXoXXXoXXXoX ..                  ",
"                   .. XXXoXXXoXXXoXXXoXXXoX ..                  ",
"                   .. XXXoXXXoXXXoXXXoXXXoX ..                  ",
"                      XXXoXXXoXXXoXXXoXXXoX                     ",
"                   .. XXXoXXXoXXXoXXXoXXXoX ..                  ",
"                   .. XXXoXXXoXXXoXXXoXXXoX ..                  ",
"                   .. XXXoXXXoXXXoXXXoXXXoX ..                  ",
"                   .. XXXoXXXoXXXoXXXoX     ..                  ",
"                      XXXoXXXoXXXoXXXoX O O                     ",
"                   .. XXXoXXXoXXXoXXXoX     ..                  ",
"                   .. XXXoXXXoXXXoXXXoXXXoX ..                  ",
"                   .. XXXoXXXoXXXoXXXoXXXoX ..                  ",
"                   .. XXXoXXXoXXXoXXXoXXXoX ..                  ",
"                      XXXoXXXoXXXoXXXoXXXoX                     ",
"                   .. XXXoXXXoXXXoXXXoXXXoX ..                  ",
"                   .. XX    XoXXXoXXXoXXXoX ..                  ",
"                   .. XXX  XXoXXXoXXXoXXXoX ..                  ",
"                   .. XX oX XoXXXoXXXoXXXoX ..                  ",
"                      XX oX XoXXXoXXXoXXXoX                     ",
"                   .. XXX  XXoXXXoXXXoXXXoX ..                  ",
"                   .. XXXoXXXoXXXoXXXoXXXoX ..                  ",
"                   .. XXXoXXXoXXXoXXXoXXXoX ..                  ",
"                   .. XXXoXXXoXXXoXXXoXXXoX ..                  ",
"                      XXXoXXXoXXXoXXXoXXXoX                     ",
"                   .. XXXoXXXoXXXoXXXoXXXoX ..                  ",
"                   .. XXXoXXXoXXXoXXXoXXXoX ..                  ",
"                   .. XXXoXXXoXXXoXXXoXXXoX ..                  ",
"                   .. XXXoXXXoXXXoXXXoXXXoX ..                  ",
"                      XXXoXXXoXXXoXXXoXXXoX                     ",
"                   .. XXXoXXXoXXXoXXXoX     ..                  ",
"                   .. XXXoXXXoXXXoXXXoX O O ..                  ",
"                   .. XXXoXXXoXXXoXXXoX     ..                  ",
"                   .. XXXoXXXoXXXoXXXoXXXoX ..                  ",
"                      XXXoXXXoXXXoXXXoXXXoX                     ",
"                   .. XXXoXXXoXXXoXXXoXXXoX ..                  ",
"                   .. XXXoXXXoXXXoXXXoXXXoX ..                  ",
"                   .. XXXoXXXoXXXoXXXoXXXoX ..                  ",
"                   .. XXXoXXXoXXXoXXXoXXXoX ..                  ",
"                                                                ",
"                                                                ",
"                                                                ",
"                                                                "
};
