/* XPM */
static char *result[] = {
/* columns rows colors chars-per-pixel */
"160 160 220 2 ",
"   c #0E0E04",
".  c #0F0D0B",
"X  c #130E05",
"o  c #1A0E03",
"O  c #120D09",
"+  c #190E08",
"@  c #0D1303",
"#  c #141205",
"$  c #1B1305",
"%  c #121C05",
"&  c #1C1A04",
"*  c #161209",
"=  c #1C1409",
"-  c #1E1A09",
";  c #101D08",
":  c #1E1610",
">  c #241606",
",  c #2A1704",
"<  c #251906",
"1  c #2C1A06",
"2  c #221609",
"3  c #291709",
"4  c #241909",
"5  c #2B1B09",
"6  c #331D04",
"7  c #3B1F03",
"8  c #331E09",
"9  c #381E09",
"0  c #15230A",
"q  c #1B2C0B",
"w  c #1A2305",
"e  c #1F2E11",
"r  c #232505",
"t  c #2D2305",
"y  c #2D2B03",
"u  c #2C210A",
"i  c #232B0B",
"p  c #2B2E0A",
"a  c #212608",
"s  c #352205",
"d  c #3B2305",
"f  c #342B04",
"g  c #3B2A04",
"h  c #362209",
"j  c #3C2409",
"k  c #362D0A",
"l  c #3B290B",
"z  c #2B340F",
"x  c #353206",
"c  c #3C3205",
"v  c #35330A",
"b  c #3A3509",
"n  c #363A0B",
"m  c #3C3C0C",
"M  c #282D14",
"N  c #342E15",
"B  c #273813",
"V  c #3B3312",
"C  c #373710",
"Z  c #353A27",
"A  c #432505",
"S  c #492704",
"D  c #442A05",
"F  c #4C2B06",
"G  c #432609",
"H  c #4B2709",
"J  c #44290A",
"K  c #4C2C0A",
"L  c #532D06",
"P  c #5A2F06",
"I  c #532D09",
"U  c #5A2F09",
"Y  c #433405",
"T  c #4C3305",
"R  c #423807",
"E  c #4B3B07",
"W  c #44370C",
"Q  c #4D310A",
"!  c #433C0B",
"~  c #4C3C0A",
"^  c #553206",
"/  c #5C3106",
"(  c #513C05",
")  c #55310A",
"_  c #5C3209",
"`  c #543A09",
"'  c #5A3A0A",
"]  c #4E2B11",
"[  c #483511",
"{  c #5D3610",
"}  c #5C3910",
"|  c #533512",
" . c #612F05",
".. c #6D2C0F",
"X. c #633306",
"o. c #693606",
"O. c #6D3907",
"+. c #62350A",
"@. c #6A3709",
"#. c #66390B",
"$. c #6C3A0B",
"%. c #673907",
"&. c #713A06",
"*. c #723C0B",
"=. c #793F0A",
"-. c #643A11",
";. c #6C3D11",
":. c #473D21",
">. c #3A420F",
",. c #374712",
"<. c #43430C",
"1. c #4A440A",
"2. c #4C4C0A",
"3. c #53440C",
"4. c #534F0E",
"5. c #454B14",
"6. c #484E16",
"7. c #4B4414",
"8. c #564311",
"9. c #524A13",
"0. c #75400D",
"q. c #7C420D",
"w. c #64451E",
"e. c #6C4618",
"r. c #754312",
"t. c #7B4412",
"y. c #7D4916",
"u. c #774D1C",
"i. c #6D5D1C",
"p. c #71581D",
"a. c #7C4D20",
"s. c #6C5526",
"d. c #75692E",
"f. c #78652B",
"g. c #7D722E",
"h. c #6A662D",
"j. c #84460D",
"k. c #89470C",
"l. c #86490E",
"z. c #8B4A0D",
"x. c #814207",
"c. c #94520F",
"v. c #9C530D",
"b. c #824711",
"n. c #854912",
"m. c #8A4B11",
"M. c #824B18",
"N. c #924C10",
"B. c #945312",
"V. c #9A5413",
"C. c #A05410",
"Z. c #915F2E",
"A. c #8F5F32",
"S. c #805530",
"D. c #90622E",
"F. c #8D6133",
"G. c #8D6C33",
"H. c #8A6736",
"J. c #936333",
"K. c #9A6535",
"L. c #936935",
"P. c #996A37",
"I. c #946C39",
"U. c #9D6D3A",
"Y. c #996438",
"T. c #8E7936",
"R. c #8C7538",
"E. c #8B7A3E",
"W. c #927036",
"Q. c #9E733C",
"!. c #947C3B",
"~. c #9C7C3D",
"^. c #A16E3A",
"/. c #A16E37",
"(. c #A57137",
"). c #A5753C",
"_. c #A8773D",
"`. c #A4793D",
"'. c #A9783E",
"]. c #A97537",
"[. c #B57C3E",
"{. c #BA7D3F",
"}. c #977241",
"|. c #A57541",
" X c #A37A41",
".X c #AA7843",
"XX c #B57D41",
"oX c #BA7D42",
"OX c #B37E4A",
"+X c #BA7D4C",
"@X c #C07D43",
"#X c #8D8138",
"$X c #94803A",
"%X c #BD803C",
"&X c #A98A45",
"*X c #B58143",
"=X c #BC8345",
"-X c #BE8649",
";X c #BC8C4B",
":X c #B48B4A",
">X c #AF9045",
",X c #B9944C",
"<X c #C28545",
"1X c #C48847",
"2X c #CC8E47",
"3X c #C48B4B",
"4X c #CD8E4A",
"5X c #C88744",
"6X c #D08E47",
"7X c #D18F49",
"8X c #CC9047",
"9X c #CE904B",
"0X c #C5934B",
"qX c #D0914B",
"wX c #D09047",
"eX c #C08B51",
"rX c #CC9251",
"tX c #C49650",
"yX c #D09450",
"uX c None",
/* pixels */
"uXuXuXuXuXuXuXuXuXuXuXuXuXuXuXuXuXuXuXuXuXuXuXuXuXuXuXuXuXuXuXuXuXuXuXuXuXuXuXuXuXuXuXuXuXuXuXuXuXuXuXuXuXuXuXuXuXuXuXuXuXuXuXuXuXuXuXuXuXuXuXuXuXuXuXuXuXuXuXuXuXuXuXuXuXuXuXuXuXuXuXuXuXuXuXuXuXuXuXuXuXuXuXuXuXuXuXuXuXuXuXuXuXuXuXuXuXuXuXuXuXuXuXuXuXuXuXuXuXuXuXuXuXuXuXuXuXuXuXuXuXuXuXuXuXuXuXuXuXuXuXuXuXuXuXuXuXuXuXuX",
"uXuXuXuXuXuXuXuXuXuXuXuXuXuXuXuXuXuXuXuXuXuXuXuXuXuXuXuXuXuXuXuXuXuXuXuXuXuXuXuXuXuXuXuXuXuXuXuXuXuXuXuXuXuXuXuXuXuXuXuXuXuXuXuXuXuXuXuXuXuXuXuXuXuXuXuXuXuXuXuXuXuXuXuXuXuXuXuXuXuXuXuXuXuXuXuXuXuXuXuXuXuXuXuXuXuXuXuXuXuXuXuXuXuXuXuXuXuXuXuXuXuXuXuXuXuXuXuXuXuXuXuXuXuXuXuXuXuXuXuXuXuXuXuXuXuXuXuXuXuXuXuXuXuXuXuXuXuXuXuX",
"uXuXuXuXuXuXuXuXuXuXuXuXuXuXuXuXuXuXuXuXuXuXuXuXuXuXuXuXuXuXuXuXuXuXuXuXuXuXuXuXuXuXuXuXuXuXuXuXuXuXuXuXuXuXuXuXuXuXuXuXuXuXuXuXuXuXuXuXuXuXuXuXuXuXuXuXuXuXuXuXuXuXuXuXuXuXuXuXuXuXuXuXuXuXuXuXuXuXuXuXuXuXuXuXuXuXuXuXuXuXuXuXuXuXuXuXuXuXuXuXuXuXuXuXuXuXuXuXuXuXuXuXuXuXuXuXuXuXuXuXuXuXuXuXuXuXuXuXuXuXuXuXuXuXuXuXuXuXuXuX",
"uXuXuXuXuXuXuXuXuXuXuXuXuXuXuXuXuXuXuXuXuXuXuXuXuXuXuXuXuXuXuXuXuXuXuXuXuXuXuXuXuXuXuXuXuXuXuXuXuXuXuXuXuXuXuXuXuXuXuXuXuXuXuXuXuXuXuXuXuXuXuXuXuXuXuXuXuXuXuXuXuXuXuXuXuXuXuXuXuXuXuXuXuXuXuXuXuXuXuXuXuXuXuXuXuXuXuXuXuXuXuXuXuXuXuXuXuXuXuXuXuXuXuXuXuXuXuXuXuXuXuXuXuXuXuXuXuXuXuXuXuXuXuXuXuXuXuXuXuXuXuXuXuXuXuXuXuXuXuXuX",
"uXuXuXuXuXuXuXuXuXuXuXuXuXuXuXuXuXuXuXuXuXuXuXuXuXuXuXuXuXuXuXuXuXuXuXuXuXuXuXuXuXuXuXuXuXuXuXuXuXuXuXuXuXuXuXuXuXuXuXuXuXuXuXuXuXuXuXuXuXuXuXuXuXuXuXuXuXuXuXuXuXuXuXuXuXuXuXuXuXuXuXuXuXuXuXuXuXuXuXuXuXuXuXuXuXuXuXuXuXuXuXuXuXuXuXuXuXuXuXuXuXuXuXuXuXuXuXuXuXuXuXuXuXuXuXuXuXuXuXuXuXuXuXuXuXuXuXuXuXuXuXuXuXuXuXuXuXuXuXuX",
"uXuXuXuXuXuXuXuXuXuXuXuXuXuXuXuXuXuXuXuXuXuXuXuXuXuXuXuXuXuXuXuXuXuXuXuXuXuXuXuXuXuXuXuXuXuXuXuXuXuXuXuXuXuXuXuXuXuXuXuXuXuXuXuXuXuXuXuXuXuXuXuXuXuXuXuXuXuXuXuXuXuXuXuXuXuXuXuXuXuXuXuXuXuXuXuXuXuXuXuXuXuXuXuXuXuXuXuXuXuXuXuXuXuXuXuXuXuXuXuXuXuXuXuXuXuXuXuXuXuXuXuXuXuXuXuXuXuXuXuXuXuXuXuXuXuXuXuXuXuXuXuXuXuXuXuXuXuXuXuX",
"uXuXuXuXuXuXuXuXuXuXuXuXuXuXuXuXuXuXuXuXuXuXuXuXuXuXuXuXuXuXuXuXuXuXuXuXuXuXuXuXuXuXuXuXuXuXuXuXuXuXuXuXuXuXuXuXuXuXuXuXuXuXuXuXuXuXuXuXuXuXuXuXuXuXuXuXuXuXuXuXuXuXuXuXuXuXuXuXuXuXuXuXuXuXuXuXuXuXuXuXuXuXuXuXuXuXuXuXuXuXuXuXuXuXuXuXuXuXuXuXuXuXuXuXuXuXuXuXuXuXuXuXuXuXuXuXuXuXuXuXuXuXuXuXuXuXuXuXuXuXuXuXuXuXuXuXuXuXuXuX",
"uXuXuXuXuXuXuXuXuXuXuXuXuXuXuXuXuXuXuXuXuXuXuXuXuXuXuXuXuXuXuXuXuXuXuXuXuXuXuXuXuXuXuXuXuXuXuXuXuXuXuXuXuXuXuXuXuXuXuXuXuXuXuXuXuXuXuXuXuXuXuXuXuXuXuXuXuXuXuXuXuXuXuXuXuXuXuXuXuXuXuXuXuXuXuXuXuXuXuXuXuXuXuXuXuXuXuXuXuXuXuXuXuXuXuXuXuXuXuXuXuXuXuXuXuXuXuXuXuXuXuXuXuXuXuXuXuXuXuXuXuXuXuXuXuXuXuXuXuXuXuXuXuXuXuXuXuXuXuXuX",
"uXuXuXuXuXuXuXuXuXuXuXuXuXuXuXuXuXuXuXuXuXuXuXuXuXuXuXuXuXuXuXuXuXuXuXuXuXuXuXuXuXuXuXuXuXuXuXuXuXuXuXuXuXuXuXuXuXuXuXuXuXuXuXuXuXuXuXuXuXuXuXuXuXuXuXuXuXuXuXuXuXuXuXuXuXuXuXuXuXuXuXuXuXuXuXuXuXuXuXuXuXuXuXuXuXuXuXuXuXuXuXuXuXuXuXuXuXuXuXuXuXuXuXuXuXuXuXuXuXuXuXuXuXuXuXuXuXuXuXuXuXuXuXuXuXuXuXuXuXuXuXuXuXuXuXuXuXuXuXuX",
"uXuXuXuXuXuXuXuXuXuXuXuXuXuXuXuXuXuXuXuXuXuXuXuXuXuXuXuXuXuXuXuXuXuXuXuXuXuXuXuXuXuXuXuXuXuXuXuXuXuXuXuXuXuXuXuXuXuXuXuXuXuXuXuXuXuXuXuXuXuXuXuXuXuXuXuXuXuXuXuXuXuXuXuXuXuXuXuXuXuXuXuXuXuXuXuXuXuXuXuXuXuXuXuXuXuXuXuXuXuXuXuXuXuXuXuXuXuXuXuXuXuXuXuXuXuXuXuXuXuXuXuXuXuXuXuXuXuXuXuXuXuXuXuXuXuXuXuXuXuXuXuXuXuXuXuXuXuXuXuX",
"uXuXuXuXuXuXuXuXuXuXuXuXuXuXuXuXuXuXuXuXuXuXuXuXuXuXuXuXuXuXuXuXuXuXuXuXuXuXuXuXuXuXuXuXuXuXuXuXuXuXuXuXuXuXuXuXuXuXuXuXuXuXuXuXuXuXuXuXuXuXuXuXuXuXuXuXuXuXuXuXuXuXuXuXuXuXuXuXuXuXuXuXuXuXuXuXuXuXuXuXuXuXuXuXuXuXuXuXuXuXuXuXuXuXuXuXuXuXuXuXuXuXuXuXuXuXuXuXuXuXuXuXuXuXuXuXuXuXuXuXuXuXuXuXuXuXuXuXuXuXuXuXuXuXuXuXuXuXuXuX",
"uXuXuXuXuXuXuXuXuXuXuXuXuXuXuXuXuXuXuXuXuXuXuXuXuXuXuXuXuXuXuXuXuXuXuXuXuXuXuXuXuXuXuXuXuXuXuXuXuXuXuXuXuXuXuXuXuXuXuXuXuXuXuXuXuXuXuXuXuXuXuXuXuXuXuXuXuXuXuXuXuXuXuXuXuXuXuXuXuXuXuXuXuXuXuXuXuXuXuXuXuXuXuXuXuXuXuXuXuXuXuXuXuXuXuXuXuXuXuXuXuXuXuXuXuXuXuXuXuXuXuXuXuXuXuXuXuXuXuXuXuXuXuXuXuXuXuXuXuXuXuXuXuXuXuXuXuXuXuXuX",
"uXuXuXuXuXuXuXuXuXuXuXuXuXuXuXuXuXuXuXuXuXuXuXuXuXuXuXuXuXuXuXuXuXuXuXuXuXuXuXuXuXuXuXuXuXuXuXuXuXuXuXuXuXuXuXuXuXuXuXuXuXuXuXuXuXuXuXuXuXuXuXuXuXuXuXuXuXuXuXuXuXuXuXuXuXuXuXuXuXuXuXuXuXuXuXuXuXuXuXuXuXuXuXuXuXuXuXuXuXuXuXuXuXuXuXuXuXuXuXuXuXuXuXuXuXuXuXuXuXuXuXuXuXuXuXuXuXuXuXuXuXuXuXuXuXuXuXuXuXuXuXuXuXuXuXuXuXuXuXuX",
"uXuXuXuXuXuXuXuXuXuXuXuXuXuXuXuXuXuXuXuXuXuXuXuXuXuXuXuXuXuXuXuXuXuXuXuXuXuXuXuXuXuXuXuXuXuXuXuXuXuXuXuXuXuXuXuXuXuXuXuXuXuXuXuXuXuXuXuXuXuXuXuXuXuXuXuXuXuXuXuXuXuXuXuXuXuXuXuXuXuXuXuXuXuXuXuXuXuXuXuXuXuXuXuXuXuXuXuXuXuXuXuXuXuXuXuXuXuXuXuXuXuXuXuXuXuXuXuXuXuXuXuXuXuXuXuXuXuXuXuXuXuXuXuXuXuXuXuXuXuXuXuXuXuXuXuXuXuXuXuX",
"uXuXuXuXuXuXuXuXuXuXuXuXuXuXuXuXuXuXuXuXuXuXuXuXuXuXuXuXuXuXuXuXuXuXuXuXuXuXuXuXuXuXuXuXuXuXuXuXuXuXuXuXuXuXuXuXuXuXuXuXuXuXuXuXuXuXuXuXuXuXuXuXuXuXuXuXuXuXuXuXuXuXuXuXuXuXuXuXuXuXuXuXuXuXuXuXuXuXuXuXuXuXuXuXuXuXuXuXuXuXuXuXuXuXuXuXuXuXuXuXuXuXuXuXuXuXuXuXuXuXuXuXuXuXuXuXuXuXuXuXuXuXuXuXuXuXuXuXuXuXuXuXuXuXuXuXuXuXuXuX",
"uXuXuXuXuXuXuXuXuXuXuXuXuXuXuXuXuXuXuXuXuXuXuXuXuXuXuXuXuXuXuXuXuXuXuXuXuXuXuXuXuXuXuXuXuXuXuXuXuXuXuXuXuXuXuXuXuXuXuXuXuXuXuXuXuXuXuXuXuXuXuXuXuXuXuXuXuXuXuXuXuXuXuXuXuXuXuXuXuXuXuXuXuXuXuXuXuXuXuXuXuXuXuXuXuXuXuXuXuXuXuXuXuXuXuXuXuXuXuXuXuXuXuXuXuXuXuXuXuXuXuXuXuXuXuXuXuXuXuXuXuXuXuXuXuXuXuXuXuXuXuXuXuXuXuXuXuXuXuXuX",
"uXuXuXuXuXuXuXuXuXuXuXuXuXuXuXuXuXuXuXuXuXuXuXuXuXuXuXuXuXuXuXuXuXuXuXuXuXuXuXuXuXuXuXuXuXuXuXuXuXuXuXuXuXuXuXuXuXuXuXuXuXuXuXuXuXuXuXuXuXuXuXuXuXuXuXuXuXuXuXuXuXuXuXuXuXuXuXuXuXuXuXuXuXuXuXuXuXuXuXuXuXuXuXuXuXuXuXuXuXuXuXuXuXuXuXuXuXuXuXuXuXuXuXuXuXuXuXuXuXuXuXuXuXuXuXuXuXuXuXuXuXuXuXuXuXuXuXuXuXuXuXuXuXuXuXuXuXuXuXuX",
"uXuXuXuXuXuXuXuXuXuXuXuXuXuXuXuXuXuXuXuXuXuXuXuXuXuXuXuXuXuXuXuXuXuXuXuXuXuXuXuXuXuXuXuXuXuXuXuXuXuXuXuXuXuXuXuXuXuXuXuXuXuXuXuXuXuXuXuXuXuXuXuXuXuXuXuXuXuXuXuXuXuXuXuXuXuXuXuXuXuXuXuXuXuXuXuXuXuXuXuXuXuXuXuXuXuXuXuXuXuXuXuXuXuXuXuXuXuXuXuXuXuXuXuXuXuXuXuXuXuXuXuXuXuXuXuXuXuXuXuXuXuXuXuXuXuXuXuXuXuXuXuXuXuXuXuXuXuXuXuX",
"uXuXuXuXuXuXuXuXuXuXuXuXuXuXuXuXuXuXuXuXuXuXuXuXuXuXuXuXuXuXuXuXuXuXuXuXuXuXuXuXuXuXuXuXuXuXuXuXuXuXuXuXuXuXuXuXuXuXuXuXuXuXuXuXuXuXuXuXuXuXuXuXuXuXuXuXuXuXuXuXuXuXuXuXuXuXuXuXuXuXuXuXuXuXuXuXuXuXuXuXuXuXuXuXuXuXuXuXuXuXuXuXuXuXuXuXuXuXuXuXuXuXuXuXuXuXuXuXuXuXuXuXuXuXuXuXuXuXuXuXuXuXuXuXuXuXuXuXuXuXuXuXuXuXuXuXuXuXuXuX",
"uXuXuXuXuXuXuXuXuXuXuXuXuXuXuXuXuXuXuXuXuXuXuXuXuXuXuXuXuXuXuXuXuXuXuXuXuXuXuXuXuXuXuXuXuXuXuXuXuXuXuXuXuXuXuXuXuXuXuXuXuXuXuXuXuXuXuXuXuXuXuXuXuXuXuXuXuXuXuXuXuXuXuXuXuXuXuXuXuXuXuXuXuXuXuXuXuXuXuXuXuXuXuXuXuXuXuXuXuXuXuXuXuXuXuXuXuXuXuXuXuXuXuXuXuXuXuXuXuXuXuXuXuXuXuXuXuXuXuXuXuXuXuXuXuXuXuXuXuXuXuXuXuXuXuXuXuXuXuXuX",
"uXuXuXuXuXuXuXuXuXuXuXuXuXuXuXuXuXuXuXuXuXuXuXuXuXuXuXuXuXuXuXuXuXuXuXuXuXuXuXuXuXuXuXuXuXuXuXuXuXuXuXuXuXuXuXuXuXuXuXuXuXuXuXuXuXuXuXuXuXuXuXuXuXuXuXuXuXuXuXuXuXuXuXuXuXuXuXuXuXuXuXuXuXuXuXuXuXuXuXuXuXuXuXuXuXuXuXuXuXuXuXuXuXuXuXuXuXuXuXuXuXuXuXuXuXuXuXuXuXuXuXuXuXuXuXuXuXuXuXuXuXuXuXuXuXuXuXuXuXuXuXuXuXuXuXuXuXuXuXuX",
"uXuXuXuXuXuXuXuXuXuXuXuXuXuXuXuXuXuXuXuXuXuXuXuXuXuXuXuXuXuXuXuXuXuXuXuXuXuXuXuXuXuXuXuXuXuXuXuXuXuXuXuXuXuXuXuXuXuXuXuXuXuXuXuXuXuXuXuXuXuXuXuXuXuXuXuXuXuXuXuXuXuXuXuXuXuXuXuXuXuXuXuXuXuXuXuXuXuXuXuXuXuXuXuXuXuXuXuXuXuXuXuXuXuXuXuXuXuXuXuXuXuXuXuXuXuXuXuXuXuXuXuXuXuXuXuXuXuXuXuXuXuXuXuXuXuXuXuXuXuXuXuXuXuXuXuXuXuXuXuX",
"uXuXuXuXuXuXuXuXuXuXuXuXuXuXuXuXuXuXuXuXuXuXuXuXuXuXuXuXuXuXuXuXuXuXuXuXuXuXuXuXuXuXuXuXuXuXuXuXuXuXuXuXuXuXuXuXuXuXuXuXuXuXuXuXuXuXuXuXuXuXuXuXuXuXuXuXuXuXuXuXuXuXuXuXuXuXuXuXuXuXuXuXuXuXuXuXuXuXuXuXuXuXuXuXuXuXuXuXuXuXuXuXuXuXuXuXuXuXuXuXuXuXuXuXuXuXuXuXuXuXuXuXuXuXuXuXuXuXuXuXuXuXuXuXuXuXuXuXuXuXuXuXuXuXuXuXuXuXuXuX",
"uXuXuXuXuXuXuXuXuXuXuXuXuXuXuXuXuXuXuXuXuXuXuXuXuXuXuXuXuXuXuXuXuXuXuXuXuXuXuXuXuXuXuXuXuXuXuXuXuXuXuXuXuXuXuXuXuXuXuXuXuXuXuXuXuXuXuXuXuXuXuXuXuXuXuXuXuXuXuXuXuXuXuXuXuXuXuXuXuXuXuXuXuXuXuXuXuXuXuXuXuXuXuXuXuXuXuXuXuXuXuXuXuXuXuXuXuXuXuXuXuXuXuXuXuXuXuXuXuXuXuXuXuXuXuXuXuXuXuXuXuXuXuXuXuXuXuXuXuXuXuXuXuXuXuXuXuXuXuXuX",
"uXuXuXuXuXuXuXuXuXuXuXuXuXuXuXuXuXuXuXuXuXuXuXuXuXuXuXuXuXuXuXuXuXuXuXuXuXuXuXuXuXuXuXuXuXuXuXuXuXuXuXuXuXuXuXuXuXuXuXuXuXuXuXuXuXuXuXuXuXuXuXuXuXuXuXuXuXuXuXuXuXuXuXuXuXuXuXuXuXuXuXuXuXuXuXuXuXuXuXuXuXuXuXuXuXuXuXuXuXuXuXuXuXuXuXuXuXuXuXuXuXuXuXuXuXuXuXuXuXuXuXuXuXuXuXuXuXuXuXuXuXuXuXuXuXuXuXuXuXuXuXuXuXuXuXuXuXuXuXuX",
"uXuXuXuXuXuXuXuXuXuXuXuXuXuXuXuXuXuXuXuXuXuXuXuXuXuXuXuXuXuXuXuXuXuXuXuXuXuXuXuXuXuXuXuXuXuXuXuXuXuXuXuXuXuXuXuXuXuXuXuXuXuXuXuXuXuXuXuXuXuXuXuXuXuXuXuXuXuXuXuXuXuXuXuXuXuXuXuXuXuXuXuXuXuXuXuXuXuXuXuXuXuXuXuXuXuXuXuXuXuXuXuXuXuXuXuXuXuXuXuXuXuXuXuXuXuXuXuXuXuXuXuXuXuXuXuXuXuXuXuXuXuXuXuXuXuXuXuXuXuXuXuXuXuXuXuXuXuXuXuX",
"uXuXuXuXuXuXuXuXuXuXuXuXuXuXuXuXuXuXuXuXuXuXuXuXuXuXuXuXuXuXuXuXuXuXuXuXuXuXuXuXuXuXuXuXuXuXuXuXuXuXuXuXuXuXuXuXuXuXuXuXuXuXuXuXuXuXuXuXuXuXuXuXuXuXuXuXuXuXuXuXuXuXuXuXuXuXuXuXuXuXuXuXuXuXuXuXuXuXuXuXuXuXuXuXuXuXuXuXuXuXuXuXuXuXuXuXuXuXuXuXuXuXuXuXuXuXuXuXuXuXuXuXuXuXuXuXuXuXuXuXuXuXuXuXuXuXuXuXuXuXuXuXuXuXuXuXuXuXuXuX",
"uXuXuXuXuXuXuXuXuXuXuXuXuXuXuXuXuXuXuXuXuXuXuXuXuXuXuXuXuXuXuXuXuXuXuXuXuXuXuXuXuXuXuXuXuXuXuXuXuXuXuXuXuXuXuXuXuXuXuXuXuXuXuXuXuXuXuXuXuXuXuXuXuXuXuXuXuXuXuXuXuXuXuXuXuXuXuXuXuXuXuXuXuXuXuXuXuXuXuXuXuXuXuXuXuXuXuXuXuXuXuXuXuXuXuXuXuXuXuXuXuXuXuXuXuXuXuXuXuXuXuXuXuXuXuXuXuXuXuXuXuXuXuXuXuXuXuXuXuXuXuXuXuXuXuXuXuXuXuXuX",
"uXuXuXuXuXuXuXuXuXuXuXuXuXuXuXuXuXuXuXuXuXuXuXuXuXuXuXuXuXuXuXuXuXuXuXuXuXuXuXuXuXuXuXuXuXuXuXuXuXuXuXuXuXuXuXuXuXuXuXuXuXuXuXuXuXuXuXuXuXuXuXuXuXuXuXuXuXuXuXuXuXuXuXuXuXuXuXuXuXuXuXuXuXuXuXuXuXuXuXuXuXuXuXuXuXuXuXuXuXuXuXuXuXuXuXuXuXuXuXuXuXuXuXuXuXuXuXuXuXuXuXuXuXuXuXuXuXuXuXuXuXuXuXuXuXuXuXuXuXuXuXuXuXuXuXuXuXuXuXuX",
"uXuXuXuXuXuXuXuXuXuXuXuXuXuXuXuXuXuXuXuXuXuXuXuXuXuXuXuXuXuXuXuXuXuXuXuXuXuXuXuXuXuXuXuXuXuXuXuXuXuXuXuXuXuXuXuXuXuXuXuXuXuXuXuXuXuXuXuXuXuXuXuXuXuXuXuXuXuXuXuXuXuXuXuXuXuXuXuXuXuXuXuXuXuXuXuXuXuXuXuXuXuXuXuXuXuXuXuXuXuXuXuXuXuXuXuXuXuXuXuXuXuXuXuXuXuXuXuXuXuXuXuXuXuXuXuXuXuXuXuXuXuXuXuXuXuXuXuXuXuXuXuXuXuXuXuXuXuXuXuX",
"uXuXuXuXuXuXuXuXuXuXuXuXuXuXuXuXuXuXuXuXuXuXuXuXuXuXuXuXuXuXuXuXuXuXuXuXuXuXuXuXuXuXuXuXuXuXuXuXuXuXuXuXuXuXuXuXuXuXuXuXuXuXuXuXuXuXuXuXuXuXuXuXuXuXuXuXuXuXuXuXuXuXuXuXuXuXuXuXuXuXuXuXuXuXuXuXuXuXuXuXuXuXuXuXuXuXuXuXuXuXuXuXuXuXuXuXuXuXuXuXuXuXuXuXuXuXuXuXuXuXuXuXuXuXuXuXuXuXuXuXuXuXuXuXuXuXuXuXuXuXuXuXuXuXuXuXuXuXuXuX",
"uXuXuXuXuXuXuXuXuXuXuXuXuXuXuXuXuXuXuXuXuXuXuXuXuXuXuXuXuXuXuXuXuXuXuXuXuXuXuXuXuXuXuXuXuXuXuXuXuXuXuXuXuXuXuXuXuXuXuXuXuXuXuXuXuXuXuXuXuXuXuXuXuXuXuXuXuXuXuXuXuXuXuXuXuXuXuXuXuXuXuXuXuXuXuXuXuXuXuXuXuXuXuXuXuXuXuXuXuXuXuXuXuXuXuXuXuXuXuXuXuXuXuXuXuXuXuXuXuXuXuXuXuXuXuXuXuXuXuXuXuXuXuXuXuXuXuXuXuXuXuXuXuXuXuXuXuXuXuXuX",
"uXuXuXuXuXuXuXuXuXuXuXuXuXuXuXuXuXuXuXuXuXuXuXuXuXuXuXuXuXuXuXuXuXuXuXuXuXuXuXuXuXuXuXuXuXuXuXuXuXuXuXuXuXuXuXuXuXuXuXuXuXuXuXuXuXuXuXuXuXuXuXuXuXuXuXuXuXuXuXuXuXuXuXuXuXuXuXuXuXuXuXuXuXuXuXuXuXuXuXuXuXuXuXuXuXuXuXuXuXuXuXuXuXuXuXuXuXuXuXuXuXuXuXuXuXuXuXuXuXuXuXuXuXuXuXuXuXuXuXuXuXuXuXuXuXuXuXuXuXuXuXuXuXuXuXuXuXuXuXuX",
"uXuXuXuXuXuXuXuXuXuXuXuXuXuXuXuXuXuXuXuXuXuXuXuXuXuXuXuXuXuXuXuXuXuXuXuXuXuXuXuXuXuXuXuXuXuXuXuXuXuXuXuXuXuXuXuXuXuXuXuXuXuXuXuXuXuXuXuXuXuXuXuXuXuXuXuXuXuXuXuXuXuXuXuXuXuXuXuXuXuXuXuXuXuXuXuXuXuXuXuXuXuXuXuXuXuXuXuXuXuXuXuXuXuXuXuXuXuXuXuXuXuXuXuXuXuXuXuXuXuXuXuXuXuXuXuXuXuXuXuXuXuXuXuXuXuXuXuXuXuXuXuXuXuXuXuXuXuXuXuX",
"uXuXuXuXuXuXuXuXuXuXuXuXuXuXuXuXuXuXuXuXuXuXuXuXuXuXuXuXuXuXuXuXuXuXuXuXuXuXuXuXuXuXuXuXuXuXuXuXuXuXuXuXuXuXuXuXuXuXuXuXuXuXuXuXuXuXuXuXuXuXuXuXuXuXuXuXuXuXuXuXuXuXuXuXuXuXuXuXuXuXuXuXuXuXuXuXuXuXuXuXuXuXuXuXuXuXuXuXuXuXuXuXuXuXuXuXuXuXuXuXuXuXuXuXuXuXuXuXuXuXuXuXuXuXuXuXuXuXuXuXuXuXuXuXuXuXuXuXuXuXuXuXuXuXuXuXuXuXuXuX",
"uXuXuXuXuXuXuXuXuXuXuXuXuXuXuXuXuXuXuXuXuXuXuXuXuXuXuXuXuXuXuXuXuXuXuXuXuXuXuXuXuXuXuXuXuXuXuXuXuXuXuXuXuXuXuXuXuXuXuXuXuXuXuXuXuXuXuXuXuXuXuXuXuXuXuXuXuXuXuXuXuXuXuXuXuXuXuXuXuXuXuXuXuXuXuXuXuXuXuXuXuXuXuXuXuXuXuXuXuXuXuXuXuXuXuXuXuXuXuXuXuXuXuXuXuXuXuXuXuXuXuXuXuXuXuXuXuXuXuXuXuXuXuXuXuXuXuXuXuXuXuXuXuXuXuXuXuXuXuXuX",
"uXuXuXuXuXuXuXuXuXuXuXuXuXuXuXuXuXuXuXuXuXuXuXuXuXuXuXuXuXuXuXuXuXuXuXuXuXuXuXuXuXuXuXuXuXuXuXuXuXuXuXuXuXuXuXuXuXuXuXuXuXuXuXuXuXuXuXuXuXuXuXuXuXuXuXuXuXuXuXuXuXuXuXuXuXuXuXuXuXuXuXuXuXuXuXuXuXuXuXuXuXuXuXuXuXuXuXuXuXuXuXuXuXuXuXuXuXuXuXuXuXuXuXuXuXuXuXuXuXuXuXuXuXuXuXuXuXuXuXuXuXuXuXuXuXuXuXuXuXuXuXuXuXuXuXuXuXuXuXuX",
"uXuXuXuXuXuXuXuXuXuXuXuXuXuXuXuXuXuXuXuXuXuXuXuXuXuXuXuXuXuXuXuXuXuXuXuXuXuXuXuXuXuXuXuXuXuXuXuXuXuXuXuXuXuXuXuXuXuXuXuXuXuXuXuXuXuXuXuXuXuXuXuXuXuXuXuXuXuXuXuXuXuXuXuXuXuXuXuXuXuXuXuXuXuXuXuXuXuXuXuXuXuXuXuXuXuXuXuXuXuXuXuXuXuXuXuXuXuXuXuXuXuXuXuXuXuXuXuXuXuXuXuXuXuXuXuXuXuXuXuXuXuXuXuXuXuXuXuXuXuXuXuXuXuXuXuXuXuXuXuX",
"uXuXuXuXuXuXuXuXuXuXuXuXuXuXuXuXuXuXuXuXuXuXuXuXuXuXuXuXuXuXuXuXuXuXuXuXuXuXuXuXuXuXuXuXuXuXuXuXuXuXuXuXuXuXuXuXuXuXuXuXuXuXuXuXuXuXuXuXuXuXuXuXuXuXuXuXuXuXuXuXuXuXuXuXuXuXuXuXuXuXuXuXuXuXuXuXuXuXuXuXuXuXuXuXuXuXuXuXuXuXuXuXuXuXuXuXuXuXuXuXuXuXuXuXuXuXuXuXuXuXuXuXuXuXuXuXuXuXuXuXuXuXuXuXuXuXuXuXuXuXuXuXuXuXuXuXuXuXuXuX",
"uXuXuXuXuXuXuXuXuXuXuXuXuXuXuXuXuXuXuXuXuXuXuXuXuXuXuXuXuXuXuXuXuXuXuXuXuXuXuXuXuXuXuXuXuXuXuXuXuXuXuXuXuXuXuXuXuXuXuXuXuXuXuXuXuXuXuXuXuXuXuXuXuXuXuXuXuXuXuXuXuXuXuXuXuXuXuXuXuXuXuXuXuXuXuXuXuXuXuXuXuXuXuXuXuXuXuXuXuXuXuXuXuXuXuXuXuXuXuXuXuXuXuXuXuXuXuXuXuXuXuXuXuXuXuXuXuXuXuXuXuXuXuXuXuXuXuXuXuXuXuXuXuXuXuXuXuXuXuXuX",
"uXuXuXuXuXuXuXuXuXuXuXuXuXuXuXuXuXuXuXuXuXuXuXuXuXuXuXh h s h G h Z uXuXuXuXuXuXuXuXuXuXuXuXuXuXuXuXuXuXuXuXuXuXuXuXuXuXuXuXuXuXuXuXuXuXuXuXuXuXuXuXuXuXuXuXuXuXuXuXuXuXuXuXuXuXuXuXuXuXuXuXuXuXuXuXuXuXuXuXuXuXuXuXuXuXuXuXuXuXuXuXuXuXuXuXuXuXuXuXuXuXuXuXuXuXuXuXuXuXuXuXuXuXuXuXuXuXuXuXuXuXuXuXuXuXuXuXuXuXuXuXuXuXuXuXuXuX",
"uXuXuXuXuXuXuXuXuXuXuXuXuXuXuXuXuXuXuXuXuXuXuXuXuXuXuXj G g s g G l uXuXuXuXuXuXuXuXuXuXuXuXuXuXuXuXuXuXuXuXuXuXuXuXuXuXuXuXuXuXuXuXuXuXuXuXuXuXuXuXuXuXuXuXuXuXuXuXN J c A G D l uXuXuXuXuXuXuXuXuXuXuXuXuXuXuXuXuXuXuXuXuXuXuXuXuXuXuXuXuXuXuXuXuXuXuXuXuXuXuXuXuXuXuXuXuXuXuXuXuXuXuXuXuXuXuXuXuXuXuXuXuXuXuXuXuXuXuXuXuXuXuX",
"uXuXuXuXuXuXuXuXuXuXuXuXuXuXuXuXuXuXuXuXuXuXuXuXuXuXuXl l j j d G j N uXuXuXuXuXuXuXuXuXuXuXuXuXuXuXuXuXuXuXuXuXuXuXuXuXuXuXuXuXuXuXuXuXuXuXuXuXuXuXuXuXuXuXuXuXuXuXl J D D D G l uXuXuXuXuXuXuXuXuXuXuXuXuXuXuXuXuXuXuXuXuXuXuXuXuXuXuXuXuXuXuXuXuXuXuXuXuXuXuXuXuXuXuXuXuXuXuXuXuXuXuXuXuXuXuXuXuXuXuXuXuXuXuXuXuXuXuXuXuXuXuX",
"uXuXuXuXuXuXuXuXuXuXuXuXuXuXuXuXuXuXuXuXuXuXuXuXuXuXuXj d j j j j j l Z uXuXuXuXuXuXuXuXuXuXuXuXuXuXuXuXuXuXuXuXuXuXuXuXuXuXuXuXuXuXuXuXuXuXuXuXuXuXuXuXuXuXuXuXuXl J D D D g A l uXuXuXuXuXuXuXuXuXuXuXuXuXuXuXuXuXuXuXuXuXuXuXuXuXuXuXuXuXuXuXuXuXuXuXuXuXuXuXuXuXuXuXuXuXuXuXuXuXuXuXuXuXuXuXuXuXuXuXuXuXuXuXuXuXuXuXuXuXuXuX",
"uXuXuXuXuXuXuXuXuXuXuXuXuXuXuXuXuXuXuXuXuXuXuXuXuXuXuXl j s j d j d A l uXuXuXuXuXuXuXuXuXuXuXuXuXuXuXuXuXuXuXuXuXuXuXuXuXuXuXuXuXuXuXuXuXuXuXuXuXuXuXuXuXuXuXuXW l D D D D G G j uXuXuXuXuXuXuXuXuXuXuXuXuXuXuXuXuXuXuXuXuXuXuXuXuXuXuXuXuXuXuXuXuXuXuXuXuXuXuXuXuXuXuXuXuXuXuXuXuXuXuXuXuXuXuXuXuXuXuXuXuXuXuXuXuXuXuXuXuXuXuX",
"uXuXuXuXuXuXuXuXuXuXuXuXuXuXuXuXuXuXuXuXuXuXuXuXuXuXuXh h g d l G G j g V uXuXuXuXuXuXuXuXuXuXuXuXuXuXuXuXuXuXuXuXuXuXuXuXuXuXuXuXuXuXuXuXuXuXuXuXuXuXuXuXuXuX:.l A G D G j g G j uXuXuXuXuXuXuXuXuXuXuXuXuXuXuXuXuXuXuXuXuXuXuXuXuXuXuXuXuXuXuXuXuXuXuXuXuXuXuXuXuXuXuXuXuXuXuXuXuXuXuXuXuXuXuXuXuXuXuXuXuXuXuXuXuXuXuXuXuXuXuX",
"uXuXuXuXuXuXuXuXuXuXuXuXuXuXuXuXuXuXuXuXuXuXuXuXuXuXuXh d d j g A g G A l uXuXuXuXuXuXuXuXuXuXuXuXuXuXuXuXuXuXuXuXuXuXuXuXuXuXuXuXuXuXuXuXuXuXuXuXuXuXuXuXuXuXj G D S A G j j G g uXuXuXuXuXuXuXuXuXuXuXuXuXuXuXuXuXuXuXuXuXuXuXuXuXuXuXuXuXuXuXuXuXuXuXuXuXuXuXuXuXuXuXuXuXuXuXuXuXuXuXuXuXuXuXuXuXuXuXuXuXuXuXuXuXuXuXuXuXuXuX",
"uXuXuXuXuXuXuXuXuXuXuXuXuXuXuXuXuXuXuXuXuXuXuXuXuXuXuXj d d d A D A D A A k uXuXuXuXuXuXuXuXuXuXuXuXuXuXuXuXuXuXuXuXuXuXuXuXuXuXuXuXuXuXuXuXuXuXuXuXuXuXuXuXv D H S D G j G j j g uXuXuXuXuXuXuXuXuXuXuXuXuXuXuXuXuXuXuXuXuXuXuXuXuXuXuXuXuXuXuXuXuXuXuXuXuXuXuXuXuXuXuXuXuXuXuXuXuXuXuXuXuXuXuXuXuXuXuXuXuXuXuXuXuXuXuXuXuXuXuX",
"uXuXuXuXuXuXuXuXuXuXuXuXuXuXuXuXuXuXuXuXuXuXuXuXuXuXuXd j l g j A A D J A A x uXuXuXuXuXuXuXuXuXuXuXuXuXuXuXuXuXuXuXuXuXuXuXuXuXuXuXuXuXuXuXuXuXuXuXuXuXuX,.g G D J G A j j j j j 6.uXuXuXuXuXuXuXuXuXuXuXuXuXuXuXuXuXuXuXuXuXuXuXuXuXuXuXuXuXuXuXuXuXuXuXuXuXuXuXuXuXuXuXuXuXuXuXuXuXuXuXuXuXuXuXuXuXuXuXuXuXuXuXuXuXuXuXuXuXuX",
"uXuXuXuXuXuXuXuXuXuXuXuXuXuXuXuXuXuXuXuXuXuXuXuXuXuXuXd j d d A j D A D A A G V uXuXuXuXuXuXuXuXuXuXuXuXuXuXuXuXuXuXuXuXuXuXuXuXuXuXuXuXuXuXuXuXuXuXuXuXuXg G A d G d j j A j j j 6.uXuXuXuXuXuXuXuXuXuXuXuXuXuXuXuXuXuXuXuXuXuXuXuXuXuXuXuXuXuXuXuXuXuXuXuXuXuXuXuXuXuXuXuXuXuXuXuXuXuXuXuXuXuXuXuXuXuXuXuXuXuXuXuXuXuXuXuXuXuX",
"uXuXuXuXuXuXuXuXuXuXuXuXuXuXuXuXuXuXuXuXuXuXuXuXuXuXuXd j j G j A G A A A g g j uXuXuXuXuXuXuXuXuXuXuXuXuXuXuXuXuXuXuXuXuXuXuXuXuXuXuXuXuXuXuXuXuXuXuXuXk G d j j j G j d d g d g <.uXuXuXuXuXuXuXuXuXuXuXuXuXuXuXuXuXuXuXuXuXuXuXuXuXuXuXuXuXuXuXuXuXuXuXuXuXuXuXuXuXuXuXuXuXuXuXuXuXuXuXuXuXuXuXuXuXuXuXuXuXuXuXuXuXuXuXuXuXuX",
"uXuXuXuXuXuXuXuXuXuXuXuXuXuXuXuXuXuXuXuXuXuXuXuXuXuXuXd d g j G l j A A G A j j u uXuXuXuXuXuXuXs.a.u.e.e.p.p.i.i.i.uXuXuXuXuXuXuXuXuXuXuXuXuXuXuXuXuXC 1 j d j j j d j j d j G j 6.uXuXuXuXuXuXuXuXuXuXuXuXuXuXuXuXuXuXuXuXuXuXuXuXuXuXuXuXuXuXuXuXuXuXuXuXuXuXuXuXuXuXuXuXuXuXuXuXuXuXuXuXuXuXuXuXuXuXuXuXuXuXuXuXuXuXuXuXuXuX",
"uXuXuXuXuXuXuXuXuXuXuXuXuXuXuXuXuXuXuXuXuXuXuXuXuXuXuXk j A j j G d A d A d d 1 r z uXuXuXuXuXuXl.l.l.l.l.B.B.v.v.B.0.X.' _ _ ) d g d d x uXuXuXuXuXuXr 5 1 d d g d d d d j d d j 5.uXuXuXuXuXuXuXuXuXuXuXuXuXuXuXuXuXuXuXuXuXuXuXuXuXuXuXuXuXuXuXuXuXuXuXuXuXuXuXuXuXuXuXuXuXuXuXuXuXuXuXuXuXuXuXuXuXuXuXuXuXuXuXuXuXuXuXuXuXuX",
"uXuXuXuXuXuXuXuXuXuXuXuXuXuXuXuXuXuXuXuXuXuXuXuXuXuXuXr d d d j d j g j d s 3 5 5 & uXuXuXuXuXuXm.l.l.l.k.N.V.v.v.B.q.X.+.%.+.) A G G d c uXuXuXuXuXr 4 3 3 t h d d j d A j g d t uXuXuXuXuXuXuXuXuXuXuXuXuXuXuXuXuXuXuXuXuXuXuXuXuXuXuXuXuXuXuXuXuXuXuXuXuXuXuXuXuXuXuXuXuXuXuXuXuXuXuXuXuXuXuXuXuXuXuXuXuXuXuXuXuXuXuXuXuXuXuX",
"uXuXuXuXuXuXuXuXuXuXuXuXuXuXuXuXuXuXuXuXuXuXuXuXuXuXuXi u j d d d d d h s 3 5 5 3 3 r uXuXuXuX8.l.z.z.l.l.c.v.B.V.B.0.o.+.@.+.) 7 d A d f uXuXuXuXz < 3 5 5 5 1 h d d d d d d h & uXuXuXuXuXuXuXuXuXuXuXuXuXuXuXuXuXuXuXuXuXuXuXuXuXuXuXuXuXuXuXuXuXuXuXuXuXuXuXuXuXuXuXuXuXuXuXuXuXuXuXuXuXuXuXuXuXuXuXuXuXuXuXuXuXuXuXuXuXuXuX",
"uXuXuXuXuXuXuXuXuXuXuXuXuXuXuXuXuXuXuXuXuXuXuXuXuXuXuXuX& h j d d d d s 3 3 4 < < 3 < >.uXuXuX8.x.l.l.l.j.B.c.B.c.B.*.@.+.@._ { A d s d f uXuXuXuX& 3 > < < 4 < 1 h d d d d d 5 ; uXuXuXuXuXuXuXuXuXuXuXuXuXuXuXuXuXuXuXuXuXuXuXuXuXuXuXuXuXuXuXuXuXuXuXuXuXuXuXuXuXuXuXuXuXuXuXuXuXuXuXuXuXuXuXuXuXuXuXuXuXuXuXuXuXuXuXuXuXuXuX",
"uXuXuXuXuXuXuXuXuXuXuXuXuXuXuXuXuXuXuXuXuXuXuXuXuXuXuXuX# > h s d s 6 , 3 3 4 4 > 4 = @ uXuXuX~ q.q.q.q.q.m.m.m.z.N.*.%.+.+.@.{ A d d d s uXuXuX; 2 - 2 < 2 < 3 3 1 h s d d h X uXuXuXuXuXuXuXuXuXuXuXuXuXuXuXuXuXuXuXuXuXuXuXuXuXuXuXuXuXuXuXuXuXuXuXuXuXuXuXuXuXuXuXuXuXuXuXuXuXuXuXuXuXuXuXuXuXuXuXuXuXuXuXuXuXuXuXuXuXuXuXuX",
"uXuXuXuXuXuXuXuXuXuXuXuXuXuXuXuXuXuXuXuXuXuXuXuXuXuXuXuXi * 3 h s s 3 < 4 < < > < & + O @ uXuX2.' / X./ o.$.*.$.*.*.o./ X.X.U U A d d d s uXuX0   X 2 2 2 > < 4 < < 5 s d s + ; uXuXuXuXuXuXuXuXuXuXuXuXuXuXuXuXuXuXuXuXuXuXuXuXuXuXuXuXuXuXuXuXuXuXuXuXuXuXuXuXuXuXuXuXuXuXuXuXuXuXuXuXuXuXuXuXuXuXuXuXuXuXuXuXuXuXuXuXuXuXuXuX",
"uXuXuXuXuXuXuXuXuXuXuXuXuXuXuXuXuXuXuXuXuXuXuXuXuXuXuXuXuX# $ 4 1 3 < < < > 4 2 - + X   . 0 uX8.U U ) U +.$.*.$.*.*.@./ X._ / U A 7 d d d uXuX@   X # - 4 3 3 3 < 4 < < h 2 X M uXuXuXuXuXuXuXuXuXuXuXuXuXuXuXuXuXuXuXuXuXuXuXuXuXuXuXuXuXuXuXuXuXuXuXuXuXuXuXuXuXuXuXuXuXuXuXuXuXuXuXuXuXuXuXuXuXuXuXuXuXuXuXuXuXuXuXuXuXuXuXuX",
"uXuXuXuXuXuXuXuXuXuXuXuXuXuXuXuXuXuXuXuXuXuXuXuXuXuXuXuXuX% $ $ < < < < > 2 4 2 X O     O @ uX8._ U U U @.;.*.*.*.*.X._ P / P I 7 7 d d s uX% O .     X * 2 < > < > > 4 - X @ uXuXuXuXuXuXuXuXuXuXuXuXuXuXuXuXuXuXuXuXuXuXuXuXuXuXuXuXuXuXuXuXuXuXuXuXuXuXuXuXuXuXuXuXuXuXuXuXuXuXuXuXuXuXuXuXuXuXuXuXuXuXuXuXuXuXuXuXuXuXuXuXuX",
"uXuXuXuXuXuXuXuXuXuXuXuXuXuXuXuXuXuXuXuXuXuXuXuXuXuXuXuXuXq # * $ 4 4 4 4 > = $ X X     O   # ] / ) U U o.*.$.$.&.*.o._ _ P ) U 7 d 7 d h a   O .   O # $ $ > 3 3 3 < 2 X # ; uXuXuXuXuXuXuXuXuXuXuXuXuXuXuXuXuXuXuXuXuXuXuXuXuXuXuXuXuXuXuXuXuXuXuXuXuXuXuXuXuXuXuXuXuXuXuXuXuXuXuXuXuXuXuXuXuXuXuXuXuXuXuXuXuXuXuXuXuXuXuXuXuX",
"uXuXuXuXuXuXuXuXuXuXuXuXuXuXuXuXuXuXuXuXuXuXuXuXuXuXuXuXuXuX@ # # $ 4 4 > - * X X X O + O O # ] P P U U @.$.*.*.*.$.X.U / P U U 7 7 d s d $ X X O X X + + # - 4 > < 4 $ X # uXuXuXuXuXuXuXuXuXuXuXuXuXuXuXuXuXuXuXuXuXuXuXuXuXuXuXuXuXuXuXuXuXuXuXuXuXuXuXuXuXuXuXuXuXuXuXuXuXuXuXuXuXuXuXuXuXuXuXuXuXuXuXuXuXuXuXuXuXuXuXuXuXuX",
"uXuXuXuXuXuXuXuXuXuXuXuXuXuXuXuXuXuXuXuXuXuXuXuXuXuXuXuXuXuX- # # $ - < 2 $ + $ X = 4 < 3 5 1 +.*.$.;.@.$.O.$.$.$.O.X.U U U U I 7 s 9 d 7 1 4 3 > 3 $ + # + + > 4 4 = # # @ uXuXuXuXuXuXuXuXuXuXuXuXuXuXuXuXuXuXuXuXuXuXuXuXuXuXuXuXuXuXuXuXuXuXuXuXuXuXuXuXuXuXuXuXuXuXuXuXuXuXuXuXuXuXuXuXuXuXuXuXuXuXuXuXuXuXuXuXuXuXuXuXuXuX",
"uXuXuXuXuXuXuXuXuXuXuXuXuXuXuXuXuXuXuXuXuXuXuXuXuXuXuXuXuXuXuX# $ * $ = $ $ + # o K U ) U ) %.n.l.l.m.k.t.$.*.$.&.*.+.U P X.P ) 7 9 s 7 d H K K K K l o # # $ $ 2 = # # . w uXuXuXuXuXuXuXuXuXuXuXuXuXuXuXuXuXuXuXuXuXuXuXuXuXuXuXuXuXuXuXuXuXuXuXuXuXuXuXuXuXuXuXuXuXuXuXuXuXuXuXuXuXuXuXuXuXuXuXuXuXuXuXuXuXuXuXuXuXuXuXuXuXuX",
"uXuXuXuXuXuXuXuXuXuXuXuXuXuXuXuXuXuXuXuXuXuXuXuXuXuXuXuXuXuXuX% * $ = = $ $ $ $ $ ) / ) _ / O.n.k.k.z.m.q.$.$.*.$.*.+.U P _ U { 7 9 d d d A F F F F J o $ * $ = $ $ # *   uXuXuXuXuXuXuXuXuXuXuXuXuXuXuXuXuXuXuXuXuXuXuXuXuXuXuXuXuXuXuXuXuXuXuXuXuXuXuXuXuXuXuXuXuXuXuXuXuXuXuXuXuXuXuXuXuXuXuXuXuXuXuXuXuXuXuXuXuXuXuXuXuXuXuX",
"uXuXuXuXuXuXuXuXuXuXuXuXuXuXuXuXuXuXuXuXuXuXuXuXuXuXuXuXuXuXuXq = - * * $ * * $ > ) P / ) / O.l.z.k.z.m.q.*.*.*.*.*.+.U P _ P U d 7 h 7 d A F F F L J > $ * $ - = * $ * @ uXuXuXuXuXuXuXuXuXuXuXuXuXuXuXuXuXuXuXuXuXuXuXuXuXuXuXuXuXuXuXuXuXuXuXuXuXuXuXuXuXuXuXuXuXuXuXuXuXuXuXuXuXuXuXuXuXuXuXuXuXuXuXuXuXuXuXuXuXuXuXuXuXuXuX",
"uXuXuXuXuXuXuXuXuXuXuXuXuXuXuXuXuXuXuXuXuXuXuXuXuXuXuXuXuXuXuXuX* $ $ * * $ $ $ h I / ) _ +.O.n.m.z.z.z.q.*.*.$.$.*.X.U  . .+.{ 7 d 7 j 7 S F L L S L 1 $ = o $ * = * # B uXuXuXuXuXuXuXuXuXuXuXuXuXuXuXuXuXuXuXuXuXuXuXuXuXuXuXuXuXuXuXuXuXuXuXuXuXuXuXuXuXuXuXuXuXuXuXuXuXuXuXuXuXuXuXuXuXuXuXuXuXuXuXuXuXuXuXuXuXuXuXuXuXuXuX",
"uXuXuXuXuXuXuXuXuXuXuXuXuXuXuXuXuXuXuXuXuXuXuXuXuXuXuXuXuXuXuXuXuX% # * + = + $ j I ^ _ _ _ #.n.k.l.k.k.0.$.*.$.*.O.o.X.U X.U _ 7 s 9 d d S S F F L F 9 + $ 2 $ = * # w uXuXuXuXuXuXuXuXuXuXuXuXuXuXuXuXuXuXuXuXuXuXuXuXuXuXuXuXuXuXuXuXuXuXuXuXuXuXuXuXuXuXuXuXuXuXuXuXuXuXuXuXuXuXuXuXuXuXuXuXuXuXuXuXuXuXuXuXuXuXuXuXuXuXuXuX",
"uXuXuXuXuXuXuXuXuXuXuXuXuXuXuXuXuXuXuXuXuXuXuXuXuXuXuXuXuXuXuXuXuX0 * * * * * o J ) L ) ) X.$.l.l.l.k.l.=.*.O.*.O.&.@.U X.X._ U A 7 7 d 7 A L F F L L J 2 2 o $ # $ # uXuXuXuXuXuXuXuXuXuXuXuXuXuXuXuXuXuXuXuXuXuXuXuXuXuXuXuXuXuXuXuXuXuXuXuXuXuXuXuXuXuXuXuXuXuXuXuXuXuXuXuXuXuXuXuXuXuXuXuXuXuXuXuXuXuXuXuXuXuXuXuXuXuXuXuXuX",
"uXuXuXuXuXuXuXuXuXuXuXuXuXuXuXuXuXuXuXuXuXuXuXuXuXuXuXuXuXuXuXuXuXuX# * # # * > J F F L I P O.q.j.j.j.j.j.j.j.l.k.l.0.@.$.#.$.;.A d d d d D ) / / ^ ) ) > + - * = # w uXuXuXuXuXuXuXuXuXuXuXuXuXuXuXuXuXuXuXuXuXuXuXuXuXuXuXuXuXuXuXuXuXuXuXuXuXuXuXuXuXuXuXuXuXuXuXuXuXuXuXuXuXuXuXuXuXuXuXuXuXuXuXuXuXuXuXuXuXuXuXuXuXuXuXuXuX",
"uXuXuXuXuXuXuXuXuXuXuXuXuXuXuXuXuXuXuXuXuXuXuXuXuXuXuXuXuXuXuXuXuXuX0 * $ # $ 3 F F F L I I O.j.x.k.j.j.k.k.z.z.N.m.q.$.$.$.$.#.A 7 7 d d S / / / / ^ / 9 $ $ $ * & uXuXuXuXuXuXuXuXuXuXuXuXuXuXuXuXuXuXuXuXuXuXuXuXuXuXuXuXuXuXuXuXuXuXuXuXuXuXuXuXuXuXuXuXuXuXuXuXuXuXuXuXuXuXuXuXuXuXuXuXuXuXuXuXuXuXuXuXuXuXuXuXuXuXuXuXuXuX",
"uXuXuXuXuXuXuXuXuXuXuXuXuXuXuXuXuXuXuXuXuXuXuXuXuXuXuXuXuXuXuXuXuXuXuX@ X # $ t D F I F L P *.j.k.x.j.x.k.z.z.z.z.N.=.$.$.$.*.r.A 7 j 7 d S ) P / ^ / ) d $ 2 2 # uXuXuXuXuXuXuXuXuXuXuXuXuXuXuXuXuXuXuXuXuXuXuXuXuXuXuXuXuXuXuXuXuXuXuXuXuXuXuXuXuXuXuXuXuXuXuXuXuXuXuXuXuXuXuXuXuXuXuXuXuXuXuXuXuXuXuXuXuXuXuXuXuXuXuXuXuXuXuX",
"uXuXuXuXuXuXuXuXuXuXuXuXuXuXuXuXuXuXuXuXuXuXuXuXuXuXuXuXuXuXuXuXuXuXuXuX# * * h J L I I F P *.l.x.k.j.k.k.m.z.z.c.z.q.O.$.$.O.$.S d s 7 7 A ) _ / _ / I D 2 $ = ,.uXuXuXuXuXuXuXuXuXuXuXuXuXuXuXuXuXuXuXuXuXuXuXuXuXuXuXuXuXuXuXuXuXuXuXuXuXuXuXuXuXuXuXuXuXuXuXuXuXuXuXuXuXuXuXuXuXuXuXuXuXuXuXuXuXuXuXuXuXuXuXuXuXuXuXuXuXuXuX",
"uXuXuXuXuXuXuXuXuXuXuXuXuXuXuXuXuXuXuXuXuXuXuXuXuXuXuXuXuXuXuXuXuXuXuXuXi * + G F L S I L S r.j.l.l.j.j.k.k.z.z.z.z.q.O.$.$.*.$.S s d d d d _ _ / ) ) U K > = & uXuXuXuXuXuXuXuXuXuXuXuXuXuXuXuXuXuXuXuXuXuXuXuXuXuXuXuXuXuXuXuXuXuXuXuXuXuXuXuXuXuXuXuXuXuXuXuXuXuXuXuXuXuXuXuXuXuXuXuXuXuXuXuXuXuXuXuXuXuXuXuXuXuXuXuXuXuXuXuX",
"uXuXuXuXuXuXuXuXuXuXuXuXuXuXuXuXuXuXuXuXuXuXuXuXuXuXuXuXuXuXuXuXuXuXuXuXuX@ $ ] F F F I F L 0.q.q.b.q.j.m.z.N.z.z.N.q.O.$.O.O.8.G s 9 6 d 7 ) I ) ) ^ P ) , - uXuXuXuXuXuXuXuXuXuXuXuXuXuXuXuXuXuXuXuXuXuXuXuXuXuXuXuXuXuXuXuXuXuXuXuXuXuXuXuXuXuXuXuXuXuXuXuXuXuXuXuXuXuXuXuXuXuXuXuXuXuXuXuXuXuXuXuXuXuXuXuXuXuXuXuXuXuXuXuXuX",
"uXuXuXuXuXuXuXuXuXuXuXuXuXuXuXuXuXuXuXuXuXuXuXuXuXuXuXuXuXuXuXuXuXuXuXuXuXuX4 J F F F F F P X.o.o.o.o.o.j.m.z.z.z.z.q.O.O.0.$.0.A 1 6 6 , 6 ) P / ) L P ^ 1 i uXuXuXuXuXuXuXuXuXuXuXuXuXuXuXuXuXuXuXuXuXuXuXuXuXuXuXuXuXuXuXuXuXuXuXuXuXuXuXuXuXuXuXuXuXuXuXuXuXuXuXuXuXuXuXuXuXuXuXuXuXuXuXuXuXuXuXuXuXuXuXuXuXuXuXuXuXuXuXuXuX",
"uXuXuXuXuXuXuXuXuXuXuXuXuXuXuXuXuXuXuXuXuXuXuXuXuXuXuXuXuXuXuXuXuXuXuXuXuXuXf K F L F F F P ..X.+. . . .q.m.z.z.N.m.q.O.*.$.#.r.A 1 6 5 5 , I _ / I U _ ) j uXuXuXuXuXuXuXuXuXuXuXuXuXuXuXuXuXuXuXuXuXuXuXuXuXuXuXuXuXuXuXuXuXuXuXuXuXuXuXuXuXuXuXuXuXuXuXuXuXuXuXuXuXuXuXuXuXuXuXuXuXuXuXuXuXuXuXuXuXuXuXuXuXuXuXuXuXuXuXuXuXuX",
"uXuXuXuXuXuXuXuXuXuXuXuXuXuXuXuXuXuXuXuXuXuXuXuXuXuXuXuXuXuXuXuXuXuXuXuXuXuX! K F L L L I I _ X._ _ X.X.j.k.z.N.N.z.0.O.$.$.$.$.A , 6 3 1 1 K ) / / ) P / R uXuXuXuXuXuXuXuXuXuXuXuXuXuXuXuXuXuXuXuXuXuXuXuXuXuXuXuXuXuXuXuXuXuXuXuXuXuXuXuXuXuXuXuXuXuXuXuXuXuXuXuXuXuXuXuXuXuXuXuXuXuXuXuXuXuXuXuXuXuXuXuXuXuXuXuXuXuXuXuXuXuX",
"uXuXuXuXuXuXuXuXuXuXuXuXuXuXuXuXuXuXuXuXuXuXuXuXuXuXuXuXuXuXuXuXuXuXuXuXuXuXR K F I L I I )  .{ +._ / X.l.z.N.z.z.m.=.$.$.$.#.*.S 1 6 3 5 6 J L ^ ^ ) X.P E uXuXuXuXuXuXuXuXuXuXuXuXuXuXuXuXuXuXuXuXuXuXuXuXuXuXuXuXuXuXuXuXuXuXuXuXuXuXuXuXuXuXuXuXuXuXuXuXuXuXuXuXuXuXuXuXuXuXuXuXuXuXuXuXuXuXuXuXuXuXuXuXuXuXuXuXuXuXuXuXuXuX",
"uXuXuXuXuXuXuXuXuXuXuXuXuXuXuXuXuXuXuXuXuXuXuXuXuXuXuXuXuXuXuXuXuXuXuXuXuXuXY I J L U I I U +.+.+.+./ X.n.z.c.z.z.m.*.$.O.O.$.$.S 3 6 1 1 6 S I P / ) U U E uXuXuXuXuXuXuXuXuXuXuXuXuXuXuXuXuXuXuXuXuXuXuXuXuXuXuXuXuXuXuXuXuXuXuXuXuXuXuXuXuXuXuXuXuXuXuXuXuXuXuXuXuXuXuXuXuXuXuXuXuXuXuXuXuXuXuXuXuXuXuXuXuXuXuXuXuXuXuXuXuXuX",
"uXuXuXuXuXuXuXuXuXuXuXuXuXuXuXuXuXuXuXuXuXuXuXuXuXuXuXuXuXuXuXuXuXuXuXuXuXuXT L F L L L U U @.X.o./ X.X.l.z.m.m.c.m.0.0.$.$.$.$.S < 1 1 6 1 S I I / _ ) ) ^ uXuXuXuXuXuXuXuXuXuXuXuXuXuXuXuXuXuXuXuXuXuXuXuXuXuXuXuXuXuXuXuXuXuXuXuXuXuXuXuXuXuXuXuXuXuXuXuXuXuXuXuXuXuXuXuXuXuXuXuXuXuXuXuXuXuXuXuXuXuXuXuXuXuXuXuXuXuXuXuXuXuX",
"uXuXuXuXuXuXuXuXuXuXuXuXuXuXuXuXuXuXuXuXuXuXuXuXuXuXuXuXuXuXuXuXuXuXuXuXuXuXF L F L P ) P +.=.=.0.0.0.0.q.q.q.q.q.q.0.O.*.$.$.$.J 9 7 d 6 s J I / P P / ) ^ uXuXuXuXuXuXuXuXuXuXuXuXuXuXuXuXuXuXuXuXuXuXuXuXuXuXuXuXuXuXuXuXuXuXuXuXuXuXuXuXuXuXuXuXuXuXuXuXuXuXuXuXuXuXuXuXuXuXuXuXuXuXuXuXuXuXuXuXuXuXuXuXuXuXuXuXuXuXuXuXuXuX",
"uXuXuXuXuXuXuXuXuXuXuXuXuXuXuXuXuXuXuXuXuXuXuXuXuXuXuXuXuXuXuXuXuXuXuXuXuXuXF L L L / )  .*.n.m.z.m.N.n.&.O.O.$.%.0.%.O.$.$.*.$.P F J J S F F / ) / / P ` ^ 3.uXuXuXuXuXuXuXuXuXuXuXuXuXuXuXuXuXuXuXuXuXuXuXuXuXuXuXuXuXuXuXuXuXuXuXuXuXuXuXuXuXuXuXuXuXuXuXuXuXuXuXuXuXuXuXuXuXuXuXuXuXuXuXuXuXuXuXuXuXuXuXuXuXuXuXuXuXuXuXuXuX",
"uXuXuXuXuXuXuXuXuXuXuXuXuXuXuXuXuXuXuXuXuXuXuXuXuXuXuXuXuXuXuXuXuXuXuXuXuX1.) I I ) / / U t.k.k.m.m.m.l.O.0.$.0.$.$.%.0.*.$.$.#.L S S S S S J / / / / _ ^ +.3.uXuXuXuXuXuXuXuXuXuXuXuXuXuXuXuXuXuXuXuXuXuXuXuXuXuXuXuXuXuXuXuXuXuXuXuXuXuXuXuXuXuXuXuXuXuXuXuXuXuXuXuXuXuXuXuXuXuXuXuXuXuXuXuXuXuXuXuXuXuXuXuXuXuXuXuXuXuXuXuXuX",
"uXuXuXuXuXuXuXuXuXuXuXuXuXuXuXuXuXuXuXuXuXuXuXuXuXuXuXuXuXuXuXuXuXuXuXuXuXY ) ) / ) ) /  .t.k.z.N.z.z.m.*.$.$.*.0.$.0.$.$.$.O.$.P S J J S S F / _ _ _ +._ _ ( uXuXuXuXuXuXuXuXuXuXuXuXuXuXuXuXuXuXuXuXuXuXuXuXuXuXuXuXuXuXuXuXuXuXuXuXuXuXuXuXuXuXuXuXuXuXuXuXuXuXuXuXuXuXuXuXuXuXuXuXuXuXuXuXuXuXuXuXuXuXuXuXuXuXuXuXuXuXuXuXuX",
"uXuXuXuXuXuXuXuXuXuXuXuXuXuXuXuXuXuXuXuXuXuXuXuXuXuXuXuXuXuXuXuXuXuXuXuXuXT _ _ / / I I / b.m.z.m.z.z.n.*.$.0.$.0.$.#.$.$.$.#.$.P S S S S G S ) _ _ ' +._ _ ` uXuXuXuXuXuXuXuXuXuXuXuXuXuXuXuXuXuXuXuXuXuXuXuXuXuXuXuXuXuXuXuXuXuXuXuXuXuXuXuXuXuXuXuXuXuXuXuXuXuXuXuXuXuXuXuXuXuXuXuXuXuXuXuXuXuXuXuXuXuXuXuXuXuXuXuXuXuXuXuXuX",
"uXuXuXuXuXuXuXuXuXuXuXuXuXuXuXuXuXuXuXuXuXuXuXuXuXuXuXuXuXuXuXuXuXuXuXuXuX) _ _ X.L ) / / n.z.z.z.z.z.j.&.$.$.*.%.%.$.$.$.$.$.$._ S D S D D F / _ _ ' _ +.' _ uXuXuXuXuXuXuXuXuXuXuXuXuXuXuXuXuXuXuXuXuXuXuXuXuXuXuXuXuXuXuXuXuXuXuXuXuXuXuXuXuXuXuXuXuXuXuXuXuXuXuXuXuXuXuXuXuXuXuXuXuXuXuXuXuXuXuXuXuXuXuXuXuXuXuXuXuXuXuXuXuX",
"uXuXuXuXuXuXuXuXuXuXuXuXuXuXuXuXuXuXuXuXuXuXuXuXuXuXuXuXuXuXuXuXuXuXuXuXuX) _ +.X./ ) / / l.z.z.m.z.z.j.*.$.*.$.$.0.0.%.$.O.$.$._ S S D S A S / X._ X.+._ _ _ ) uXuXuXuXuXuXuXuXuXuXuXuXuXuXuXuXuXuXuXuXuXuXuXuXuXuXuXuXuXuXuXuXuXuXuXuXuXuXuXuXuXuXuXuXuXuXuXuXuXuXuXuXuXuXuXuXuXuXuXuXuXuXuXuXuXuXuXuXuXuXuXuXuXuXuXuXuXuXuXuX",
"uXuXuXuXuXuXuXuXuXuXuXuXuXuXuXuXuXuXuXuXuXuXuXuXuXuXuXuXuXuXuXuXuXuXuXuXE ) / / / ) I I P k.k.m.z.z.z.j.o.@.#.@.#.#.$.O.$.$.*.#._ A G j G G A _ X.X.+._ +._ ' _ uXuXuXuXuXuXuXuXuXuXuXuXuXuXuXuXuXuXuXuXuXuXuXuXuXuXuXuXuXuXuXuXuXuXuXuXuXuXuXuXuXuXuXuXuXuXuXuXuXuXuXuXuXuXuXuXuXuXuXuXuXuXuXuXuXuXuXuXuXuXuXuXuXuXuXuXuXuXuXuX",
"uXuXuXuXuXuXuXuXuXuXuXuXuXuXuXuXuXuXuXuXuXuXuXuXuXuXuXuXuXuXuXuXuXuXuXuX( ) P / / L L L P k.m.m.z.z.z.j. .U / U _ / $.$.$.$.*.$._ A d d d d A I _ _ _ +.+./ _ ^ uXuXuXuXuXuXuXuXuXuXuXuXuXuXuXuXuXuXuXuXuXuXuXuXuXuXuXuXuXuXuXuXuXuXuXuXuXuXuXuXuXuXuXuXuXuXuXuXuXuXuXuXuXuXuXuXuXuXuXuXuXuXuXuXuXuXuXuXuXuXuXuXuXuXuXuXuXuXuXuX",
"uXuXuXuXuXuXuXuXuXuXuXuXuXuXuXuXuXuXuXuXuXuXuXuXuXuXuXuXuXuXuXuXuXuXuXuX( ) / / ) L L L / m.j.n.k.z.m.t.P +.U U / / $.$.$.$.*.$./ d d d 7 d A _ _ / +._ +.' _ _ uXuXuXuXuXuXuXuXuXuXuXuXuXuXuXuXuXuXuXuXuXuXuXuXuXuXuXuXuXuXuXuXuXuXuXuXuXuXuXuXuXuXuXuXuXuXuXuXuXuXuXuXuXuXuXuXuXuXuXuXuXuXuXuXuXuXuXuXuXuXuXuXuXuXuXuXuXuXuXuX",
"uXuXuXuXuXuXuXuXuXuXuXuXuXuXuXuXuXuXuXuXuXuXuXuXuXuXuXuXuXuXuXuXuXuXuXuX^ ) / P L L L F X.m.m.m.k.m.l.=.P _ U X./ P $.$.*.$.*.#._ A A d d d d I +.' +./ / _ _ ' uXuXuXuXuXuXuXuXuXuXuXuXuXuXuXuXuXuXuXuXuXuXuXuXuXuXuXuXuXuXuXuXuXuXuXuXuXuXuXuXuXuXuXuXuXuXuXuXuXuXuXuXuXuXuXuXuXuXuXuXuXuXuXuXuXuXuXuXuXuXuXuXuXuXuXuXuXuXuXuX",
"uXuXuXuXuXuXuXuXuXuXuXuXuXuXuXuXuXuXuXuXuXuXuXuXuXuXuXuXuXuXuXuXuXuXuXuX) / / ) L I I L @.N.m.l.z.z.k.r.U U U P U P #.*.O.;.*.$.+.A d d d A A I _ _ / / _ +._ +.#.uXuXuXuXuXuXuXuXuXuXuXuXuXuXuXuXuXuXuXuXuXuXuXuXuXuXuXuXuXuXuXuXuXuXuXuXuXuXuXuXuXuXuXuXuXuXuXuXuXuXuXuXuXuXuXuXuXuXuXuXuXuXuXuXuXuXuXuXuXuXuXuXuXuXuXuXuXuXuX",
"uXuXuXuXuXuXuXuXuXuXuXuXuXuXuXuXuXuXuXuXuXuXuXuXuXuXuXuXuXuXuXuXuXuXuXuXU P / L L I L L #.z.z.n.z.k.m.=.U U P U U P ;.*.*.$.O.$._ A j d j d 7 L _ / ' X./ / _ _ #.uXuXuXuXuXuXuXuXuXuXuXuXuXuXuXuXuXuXuXuXuXuXuXuXuXuXuXuXuXuXuXuXuXuXuXuXuXuXuXuXuXuXuXuXuXuXuXuXuXuXuXuXuXuXuXuXuXuXuXuXuXuXuXuXuXuXuXuXuXuXuXuXuXuXuXuXuXuXuX",
"uXuXuXuXuXuXuXuXuXuXuXuXuXuXuXuXuXuXuXuXuXuXuXuXuXuXuXuXuXuXuXuXuXuXuX8.P ) U L L F I L r.l.z.z.z.z.n.=.P U P P U P $.*.O.*.$.$.#.7 A d d d A K _ _ _ / ' _ _ _ ) uXuXuXuXuXuXuXuXuXuXuXuXuXuXuXuXuXuXuXuXuXuXuXuXuXuXuXuXuXuXuXuXuXuXuXuXuXuXuXuXuXuXuXuXuXuXuXuXuXuXuXuXuXuXuXuXuXuXuXuXuXuXuXuXuXuXuXuXuXuXuXuXuXuXuXuXuXuXuX",
"uXuXuXuXuXuXuXuXuXuXuXuXuXuXuXuXuXuXuXuXuXuXuXuXuXuXuXuXuXuXuXuXuXuXuXR P _ ) I L I Q F 0.n.m.n.k.m.n.*.P P P P P  .;.;.*.$.$.$.} A d A d G d S _ / / ' / ^ / _ ) uXuXuXuXuXuXuXuXuXuXuXuXuXuXuXuXuXuXuXuXuXuXuXuXuXuXuXuXuXuXuXuXuXuXuXuXuXuXuXuXuXuXuXuXuXuXuXuXuXuXuXuXuXuXuXuXuXuXuXuXuXuXuXuXuXuXuXuXuXuXuXuXuXuXuXuXuXuXuX",
"uXuXuXuXuXuXuXuXuXuXuXuXuXuXuXuXuXuXuXuXuXuXuXuXuXuXuXuXuXuXuXuXuXuXuXT / / I L L F I F @.*.O.*.&.&.*.*.@.@.#.;.$.;.X.X.X. .X.X.U A j A A d 7 S ' / / / ^ _ ' _ _ uXuXuXuXuXuXuXuXuXuXuXuXuXuXuXuXuXuXuXuXuXuXuXuXuXuXuXuXuXuXuXuXuXuXuXuXuXuXuXuXuXuXuXuXuXuXuXuXuXuXuXuXuXuXuXuXuXuXuXuXuXuXuXuXuXuXuXuXuXuXuXuXuXuXuXuXuXuXuX",
"uXuXuXuXuXuXuXuXuXuXuXuXuXuXuXuXuXuXuXuXuXuXuXuXuXuXuXuXuXuXuXuXuXuXuX) ) _ I L L L F L -.*.*.$.&.=.*.;.;.$.&.*.*.;.X.U _ U P _ U 7 A A G A A S / / +.' _ _ / ) ` | uXuXuXuXuXuXuXuXuXuXuXuXuXuXuXuXuXuXuXuXuXuXuXuXuXuXuXuXuXuXuXuXuXuXuXuXuXuXuXuXuXuXuXuXuXuXuXuXuXuXuXuXuXuXuXuXuXuXuXuXuXuXuXuXuXuXuXuXuXuXuXuXuXuXuXuXuXuX",
"uXuXuXuXuXuXuXuXuXuXuXuXuXuXuXuXuXuXuXuXuXuXuXuXuXuXuXuXuXuXuXuXuXuXuXI ) ) I L L F K L @.#.@.$.$.;.$.$.$.*.&.&.$.;.X.X._ { U P U G G A A d A A _ ^ / / / ' _ ^ ) { uXuXuXuXuXuXuXuXuXuXuXuXuXuXuXuXuXuXuXuXuXuXuXuXuXuXuXuXuXuXuXuXuXuXuXuXuXuXuXuXuXuXuXuXuXuXuXuXuXuXuXuXuXuXuXuXuXuXuXuXuXuXuXuXuXuXuXuXuXuXuXuXuXuXuXuXuXuX",
"uXuXuXuXuXuXuXuXuXuXuXuXuXuXuXuXuXuXuXuXuXuXuXuXuXuXuXuXuXuXuXuXuXuXx / / ) I L F L F L #.$.$.O.*.*.*.*.*.$.*.$.*.;. .U U _ U  .) A 7 A G A A A ) _ / / _ / _ _ ) ) uXuXuXuXuXuXuXuXuXuXuXuXuXuXuXuXuXuXuXuXuXuXuXuXuXuXuXuXuXuXuXuXuXuXuXuXuXuXuXuXuXuXuXuXuXuXuXuXuXuXuXuXuXuXuXuXuXuXuXuXuXuXuXuXuXuXuXuXuXuXuXuXuXuXuXuXuXuX",
"uXuXuXuXuXuXuXuXuXuXuXuXuXuXuXuXuXuXuXuXuXuXuXuXuXuXuXuXuXuXuXuXuXuXc ) I ) F F F K I L #.$.O.*.&.*.$.$.$.$.*.;.$.$.X._ U U P / U A A A A 7 A A _ / / ' _ ' ^ _ _ ^ uXuXuXuXuXuXuXuXuXuXuXuXuXuXuXuXuXuXuXuXuXuXuXuXuXuXuXuXuXuXuXuXuXuXuXuXuXuXuXuXuXuXuXuXuXuXuXuXuXuXuXuXuXuXuXuXuXuXuXuXuXuXuXuXuXuXuXuXuXuXuXuXuXuXuXuXuXuX",
"uXuXuXuXuXuXuXuXuXuXuXuXuXuXuXuXuXuXuXuXuXuXuXuXuXuXuXuXuXuXuXuXuXuX( ) P I ^ L L L L P #.$.*.O.$.$.*.*.*.$.$.$.*.$.X.U _ X.U U ) S S 7 A G G A ) _ / / _ _ _ _ ) ) uXuXuXuXuXuXuXuXuXuXuXuXuXuXuXuXuXuXuXuXuXuXuXuXuXuXuXuXuXuXuXuXuXuXuXuXuXuXuXuXuXuXuXuXuXuXuXuXuXuXuXuXuXuXuXuXuXuXuXuXuXuXuXuXuXuXuXuXuXuXuXuXuXuXuXuXuXuX",
"uXuXuXuXuXuXuXuXuXuXuXuXuXuXuXuXuXuXuXuXuXuXuXuXuXuXuXuXuXuXuXuXuXuXW ) ) L L F K L K I $.$.*.$.$.*.$.$.$.$.*.$.*.$.X.U _ U X.P _ S G d A d A d Q Q I ) K F I F H K @.uXuXuXuXuXuXuXuXuXuXuXuXuXuXuXuXuXuXuXuXuXuXuXuXuXuXuXuXuXuXuXuXuXuXuXuXuXuXuXuXuXuXuXuXuXuXuXuXuXuXuXuXuXuXuXuXuXuXuXuXuXuXuXuXuXuXuXuXuXuXuXuXuXuXuXuXuX",
"uXuXuXuXuXuXuXuXuXuXuXuXuXuXuXuXuXuXuXuXuXuXuXuXuXuXuXuXuXuXuXuXuXuX, 1 1 , , , , , 1 A ;.*.*.$.O.$.*.$.$.*.$.@.$.#.X._ _  .P P U 7 G j j d A d 6 , , > , 3 < > 4 4 j uXuXuXuXuXuXuXuXuXuXuXuXuXuXuXuXuXuXuXuXuXuXuXuXuXuXuXuXuXuXuXuXuXuXuXuXuXuXuXuXuXuXuXuXuXuXuXuXuXuXuXuXuXuXuXuXuXuXuXuXuXuXuXuXuXuXuXuXuXuXuXuXuXuXuXuXuX",
"uXuXuXuXuXuXuXuXuXuXuXuXuXuXuXuXuXuXuXuXuXuXuXuXuXuXuXuXuXuXuXuXuXuX4 4 2 4 4 2 2 4 4 G y.q.t.t.=.=.t.$.;.$.O.#.&.O.U _ P X.U  ._ 7 6 6 8 9 6 6 1 5 < < < < 4 2 2 & y uXuXuXuXuXuXuXuXuXuXuXuXuXuXuXuXuXuXuXuXuXuXuXuXuXuXuXuXuXuXuXuXuXuXuXuXuXuXuXuXuXuXuXuXuXuXuXuXuXuXuXuXuXuXuXuXuXuXuXuXuXuXuXuXuXuXuXuXuXuXuXuXuXuXuXuXuX",
"uXuXuXuXuXuXuXuXuXuXuXuXuXuXuXuXuXuXuXuXuXuXuXuXuXuXuXuXuXuXuXuXuXuXr - 2 2 > > > < > J M.k.j.n.m.l.M.*.*.$.*.$.$.$.X.U _ / P P U 6 6 1 1 1 6 , 1 5 5 < , 3 > > > & uXuXuXuXuXuXuXuXuXuXuXuXuXuXuXuXuXuXuXuXuXuXuXuXuXuXuXuXuXuXuXuXuXuXuXuXuXuXuXuXuXuXuXuXuXuXuXuXuXuXuXuXuXuXuXuXuXuXuXuXuXuXuXuXuXuXuXuXuXuXuXuXuXuXuXuXuXuX",
"uXuXuXuXuXuXuXuXuXuXuXuXuXuXuXuXuXuXuXuXuXuXuXuXuXuXuXuXuXuXuXuXuXuXw & - 2 - 2 4 2 2 H n.z.k.m.k.k.b.&.$.*.*.;.O.$.U _ P ) / P ) 6 5 5 1 1 1 5 1 1 < 4 2 4 4 4 2 & uXuXuXuXuXuXuXuXuXuXuXuXuXuXuXuXuXuXuXuXuXuXuXuXuXuXuXuXuXuXuXuXuXuXuXuXuXuXuXuXuXuXuXuXuXuXuXuXuXuXuXuXuXuXuXuXuXuXuXuXuXuXuXuXuXuXuXuXuXuXuXuXuXuXuXuXuXuX",
"uXuXuXuXuXuXuXuXuXuXuXuXuXuXuXuXuXuXuXuXuXuXuXuXuXuXuXuXuXuXuXuXuXuXuX& 2 $ 2 2 2 2 2 ) m.k.z.l.k.k.n.&.*.$.$.O.$.$.U +./ / ) P U 6 5 5 5 1 8 1 , 5 5 < $ 4 & 2 2 q uXuXuXuXuXuXuXuXuXuXuXuXuXuXuXuXuXuXuXuXuXuXuXuXuXuXuXuXuXuXuXuXuXuXuXuXuXuXuXuXuXuXuXuXuXuXuXuXuXuXuXuXuXuXuXuXuXuXuXuXuXuXuXuXuXuXuXuXuXuXuXuXuXuXuXuXuXuX",
"uXuXuXuXuXuXuXuXuXuXuXuXuXuXuXuXuXuXuXuXuXuXuXuXuXuXuXuXuXuXuXuXuXuXuX& 2 = 2 2 > > > ) m.k.m.l.k.k.b.&.$.*.*.@.O.@.U U _ P P P P 9 5 1 1 1 1 1 1 1 5 5 $ $ $ 2 2 z uXuXuXuXuXuXuXuXuXuXuXuXuXuXuXuXuXuXuXuXuXuXuXuXuXuXuXuXuXuXuXuXuXuXuXuXuXuXuXuXuXuXuXuXuXuXuXuXuXuXuXuXuXuXuXuXuXuXuXuXuXuXuXuXuXuXuXuXuXuXuXuXuXuXuXuXuXuX",
"uXuXuXuXuXuXuXuXuXuXuXuXuXuXuXuXuXuXuXuXuXuXuXuXuXuXuXuXuXuXuXuXuXuXuX< 2 2 $ 2 4 4 > ) m.z.j.k.k.m.n.&.$.$.$.$.@.;.U U P P ) P I 6 5 1 1 5 1 1 1 1 1 5 $ $ $ - 2 f uXuXuXuXuXuXuXuXuXuXuXuXuXuXuXuXuXuXuXuXuXuXuXuXuXuXuXuXuXuXuXuXuXuXuXuXuXuXuXuXuXuXuXuXuXuXuXuXuXuXuXuXuXuXuXuXuXuXuXuXuXuXuXuXuXuXuXuXuXuXuXuXuXuXuXuXuXuX",
"uXuXuXuXuXuXuXuXuXuXuXuXuXuXuXuXuXuXuXuXuXuXuXuXuXuXuXuXuXuXuXuXuXuX! j > - $ 2 < < > +.m.k.m.k.z.N.n.&.$.$.$.$.#.$._ U / P ) / P 9 5 6 8 3 1 1 1 1 5 4 o X # = o D n uXuXuXuXuXuXuXuXuXuXuXuXuXuXuXuXuXuXuXuXuXuXuXuXuXuXuXuXuXuXuXuXuXuXuXuXuXuXuXuXuXuXuXuXuXuXuXuXuXuXuXuXuXuXuXuXuXuXuXuXuXuXuXuXuXuXuXuXuXuXuXuXuXuXuXuXuX",
"uXuXuXuXuXuXuXuXuXuXuXuXuXuXuXuXuXuXuXuXuXuXuXuXuXuXuXuXuXuXuXuXuXuXg G > $ 2 2 4 < > -.m.l.m.l.z.k.b.*.O.$.$.$.$.#. .U P P / P I s 5 5 1 1 1 1 1 5 , < o # + $ 3 j g uXuXuXuXuXuXuXuXuXuXuXuXuXuXuXuXuXuXuXuXuXuXuXuXuXuXuXuXuXuXuXuXuXuXuXuXuXuXuXuXuXuXuXuXuXuXuXuXuXuXuXuXuXuXuXuXuXuXuXuXuXuXuXuXuXuXuXuXuXuXuXuXuXuXuXuXuX",
"uXuXuXuXuXuXuXuXuXuXuXuXuXuXuXuXuXuXuXuXuXuXuXuXuXuXuXuXuXuXuXuXuXc J S 5 $ = 2 4 < < $.z.m.m.l.k.k.b.O.*.$.O.$.$.$.P _ P P / I / 7 5 1 1 1 1 1 1 3 1 < # # + X u j G x uXuXuXuXuXuXuXuXuXuXuXuXuXuXuXuXuXuXuXuXuXuXuXuXuXuXuXuXuXA.).*XXX.XOXOX.X}.|.uXuXuXuXuXuXuXuXuXuXuXuXuXuXuXuXuXuXuXuXuXuXuXuXuXuXuXuXuXuXuXuXuXuXuXuXuX",
"uXuXuXuXuXuXuXuXuXuXuXuXuXuXuXuXuXuXuXuXuXuXuXuXuXuXuXuXuXuXuXuXuXY F F 5 2 = $ < 5 3 r.m.j.n.j.n.n.b.*.$.$.#.#.#.#. ._ / / ) P ) 7 6 6 6 1 1 6 6 , 3 3 + # # @ uXs j d uXuXuXuXuXuXuXuXuXuXuXuXuXuXuXuXuXuXuXuXuXuXuXuXuXuXuXuXH.J.K.XX{.XXoX{.3X7X3X4X9X4XrXrX3X*XXX X|.W.uXuXuXuXuXuXuXuXuXuXuXuXuXuXuXuXuXuXuXuXuXuXuXuXuXuX",
"uXuXuXuXuXuXuXuXuXuXuXuXuXuXuXuXuXuXuXuXuXuXuXuXuXuXuXuXuXuXuXuXR J K D p & 2 = 3 5 1 #.&.O.O.&.&.&.$. .P P P X.U / _ +._ _ _ X.) S d G A j j A l 1 1 5 $ X X q uXx d G >.uXuXuXuXuXuXuXuXuXuXuXuXuXuXuXuXuXuXuXuXuXuXuXuXuXuXA.A.A.J._.[.XXXXoX<X7X7X4X4X9X4X0X9X8X%X{.OX-X&XuXuXuXuXuXuXuXuXuXuXuXuXuXuXuXuXuXuXuXuXuXuXuXuXuX",
"uXuXuXuXuXuXuXuXuXuXuXuXuXuXuXuXuXuXuXuXuXuXuXuXuXuXuXuXuXuXuXuXF L J b uX# = = , 5 1 -.*.#.O.O.$.#.$.U U U U P P P +.+.X.@.o.o.+.S S A A G S A S 6 5 h + . X uXuXuXd J g uXuXuXuXuXuXuXuXuXuXuXuXuXuXuXuXuXuXuXuXuXuXuXuXuXH.J.A.J.Z./.[.XXoX{.@X4XrX4X9X9X3X4X9X9X5X@XXX=X@XS.uXuXuXuXuXuXuXuXuXuXuXuXuXuXuXuXuXuXuXuXuXuXuXuX",
"uXuXuXuXuXuXuXuXuXuXuXuXuXuXuXuXuXuXuXuXuXuXuXuXuXuXuXuXuXuXuXY L H D uXuXi * $ 5 3 1 ;.*.@.#.*.$.*.#. .P U U P P P X.X.+.@.X.X.+.F S G S A S A S 6 1 1 $ .   uXuXuXl G j k uXuXuXuXuXuXuXuXuXuXuXuXuXuXuXuXuXuXuXuXuXuXuX}.U.A.J.F.J.J.XXXXoXoXoX3X4X7X9X4X4X4X4X0X4XoXoX*XoX+XuXuXuXuXuXuXuXuXuXuXuXuXuXuXuXuXuXuXuXuXuXuXuXuX",
"uXuXuXuXuXuXuXuXuXuXuXuXuXuXuXuXuXuXuXuXuXuXuXuXuXuXuXuXuXuX[ D J D R uXuXuX$ - , 1 6 ;.&.$.$.O.*.$.$./ _ / P I I P +.+.X.+.' X._ H G A A j G S J 9 1 1 $   i uXuXuXuXg A g uXuXuXuXuXuXuXuXuXuXuXuXuXuXuXuXuXuXuXuXuXuX).^.).J.A.J.F.J..XXXoXoX{.=X4X4X8X0X4X8X9X4X4X<XoX=XoXoXF.uXuXuXuXuXuXuXuXuXuXuXuXuXuXuXuXuXuXuXuXuXuXuX",
"uXuXuXuXuXuXuXuXuXuXuXuXuXuXuXuXuXuXuXuXuXuXuXuXuXuXuXuXuXuXT D D D uXuXuXuX# = 5 5 s 0.&.$.$.*.$.*.#. .U U P I L U +.+.@.+.+.o.+.F S G S S G S D 9 1 6 $ @ uXuXuXuXuXy G A n uXuXuXuXuXuXuXuXuXuXuXuXuXuXuXuXuXuXuXuX|.).Q.|.Y.J.J.J.J./.{.{.oXoX<X1X4X4X4X4X8X4X0X4X4X=X{.oX[.=XuXuXuXuXuXuXuXuXuXuXuXuXuXuXuXuXuXuXuXuXuXuXuX",
"uXuXuXuXuXuXuXuXuXuXuXuXuXuXuXuXuXuXuXuXuXuXuXuXuXuXuXuXuXK F D D c uXuXuXuX& - 1 1 s $.&.$.$.*.*.$.#.P U U I P I I +.+.+.+.o.+._ F S A A A A A G d 6 6 - @ uXuXuXuXuXuXA j f uXuXuXuXuXuXuXuXuXuXuXuXuXuXuXuXuXuXuX}.).Q.Q.).U.J.D.F.J./.=X=X<X1XoX1X4X4X9X4X0X4X4X4X4X<X{.oX=XoXuXuXuXuXuXuXuXuXuXuXuXuXuXuXuXuXuXuXuXuXuXuXuX",
"uXuXuXuXuXuXuXuXuXuXuXuXuXuXuXuXuXuXuXuXuXuXuXuXuXuXuXuXuXQ K J D x uXuXuXuX& 2 1 5 7 #.$.$.@.*.$.$.@.U U U U I L P X.+.@.@.%.+._ L S A G G S S G d 9 s $ @ uXuXuXuXuXuXg j g n uXuXuXuXuXuXuXuXuXuXuXuXuXuXuXuXd.H.U.).).Q.).U.J.J.J.I.(.;XrX4X4X4X4X7X4X4X4X4X4X9X4X9X4X1X1X1X1XeXuXuXuXuXuXuXuXuXuXuXuXuXuXuXuXuXuXuXuXuXuXuX",
"uXuXuXuXuXuXuXuXuXuXuXuXuXuXuXuXuXuXuXuXuXuXuXuXuXuXuXuX] F J D | uXuXuXuXuXuX- 3 5 G ;.$.$.*.*.$.*.@.U U U U U U P X.+.%.+.+.X.X.S A S S S G G S d 9 s $ i uXuXuXuXuXuXn j A d uXuXuXuXuXuXuXuXuXuXuXuXuXuXuXH.J.J.Y.|.).).).Q.J.J.U.).)..X4X4X4X4XrXqX4X7X4X4X9XqX4X9X3X4X3X4X4X3XuXuXuXuXuXuXuXuXuXuXuXuXuXuXuXuXuXuXuXuXuXuX",
"uXuXuXuXuXuXuXuXuXuXuXuXuXuXuXuXuXuXuXuXuXuXuXuXuXuXuXuXQ F D K uXuXuXuXuXuXuX& 4 4 A $.$.$.&.@.*.*.@.P U U I U U P +.+.@.%.@.@._ L S G A G S S G A d h - uXuXuXuXuXuXuXuXy j j ! uXuXuXuXuXuXuXuXuXuXuXuXuXW.D.Y.F.J.|.).).).(.Q.U.Q.|.).^.3X9X4X4X4X9X7X4X4X4X4X7X4X9X9X4X2X2X4X4X3XuXuXuXuXuXuXuXuXuXuXuXuXuXuXuXuXuXuXuXuXuX",
"uXuXuXuXuXuXuXuXuXuXuXuXuXuXuXuXuXuXuXuXuXuXuXuXuXuXuX[ J F F | uXuXuXuXuXuXuX4 4 3 H *.&.&.*.*.*.*.@.U P P P P ) _ +.X._ _ _ / _ K d g j d j g j d 6 s & uXuXuXuXuXuXuXuXp s G g uXuXuXuXuXuXuXuXuXuXuXuXW.K.J.F.A.J.U.}.).).Q.Q.).).|.).).oX4X4X4X4X9X4XyX4X7X4X9XqX4X9X9X4X9X4X4X8XU.uXuXuXuXuXuXuXuXuXuXuXuXuXuXuXuXuXuXuXuX",
"uXuXuXuXuXuXuXuXuXuXuXuXuXuXuXuXuXuXuXuXuXuXuXuXuXuXuXD Q F K uXuXuXuXuXuXuXuXuX4 > _ n.b.n.b.n.n.n.=.@.+.+.@.@.#.+.P P P I P P I A , , , , 1 1 1 6 s s n uXuXuXuXuXuXuXuXuXy j l 6.uXuXuXuXuXuXuXuXuXuXI.J.J.F.J.J.A.Y.).Q.Q.Q.(.).).Q.Q.)._.3X4X7X7X4X4X7X4XyX9X4XyX7X4X4X4X4X4X4X4X3XuXuXuXuXuXuXuXuXuXuXuXuXuXuXuXuXuXuXuXuX",
"uXuXuXuXuXuXuXuXuXuXuXuXuXuXuXuXuXuXuXuXuXuXuXuXuXuXF F J F | uXuXuXuXuXuXuXuXuX3 > } j.k.l.k.k.l.n.t.$.@.$.#.$.O.#.P L F F L L I j 1 3 5 5 < < , 1 9 s r uXuXuXuXuXuXuXuXuX>.h J g uXuXuXuXuXuXuXuXuXR.G.K.K.J.J.A.J.J.U.).).).).Q.).).).).).-X4X4XyXqX4X4XqX4X4X7X4X4X4X4X2X7X3X4X7X7X'.uXuXuXuXuXuXuXuXuXuXuXuXuXuXuXuXuXuXuX",
"uXuXuXuXuXuXuXuXuXuXuXuXuXuXuXuXuXuXuXuXuXuXuXuXuXuXF D J J uXuXuXuXuXuXuXuXuXw.3 > e.j.l.l.k.m.n.j.r.O.$.$.$.#.@.#.P L L L I I L G 1 1 5 3 3 3 1 1 s s m uXuXuXuXuXuXuXuXuXuXf l S b uXuXuXuXuXuXuXuXH.J.Y.Y.J.J.H.J.J.U.|.Q.).(.Q.Q.).).).(.'.rXrX4X7XrX4X7X4X4X9XqX4X7X4X4X4X7X3X4X4XrXuXuXuXuXuXuXuXuXuXuXuXuXuXuXuXuXuXuXuX",
"uXuXuXuXuXuXuXuXuXuXuXuXuXuXuXuXuXuXuXuXuXuXuXuXuX^ J F F uXuXuXuXuXuXuXuXuXuXw.3 , e.x.j.k.b.b.j.l.=.@.#.O.*.#.@.@.P L L L L L L G 1 5 1 1 3 5 1 5 9 8 m uXuXuXuXuXuXuXuXuXuX5.j S g uXuXuXuXuXuXuXuXuXL.J.J.I.Y.J.F.J.J.|.).).).).|.).|.).).^.3X4X4X7X4XqX4X4X7XyX4X4X4X7X4X7X4X4X4X6X4XOXuXuXuXuXuXuXuXuXuXuXuXuXuXuXuXuXuXuX",
"uXuXuXuXuXuXuXuXuXuXuXuXuXuXuXuXuXuXuXuXuXuXuXuXuXK K D L uXuXuXuXuXuXuXuXuXuX| 3 1 r.n.l.j.l.b.j.j.*.@.#.O.$.%.%.#.L L L L U L L G 1 5 5 3 5 5 3 1 s s V uXuXuXuXuXuXuXuXuXuXuXg S g b uXuXuXuXuXuXuXuXL.J.L.P.P.J.J.F.J.).Q.).).Q.).|.Q.).).).XXrXqXqX4X4X4X3X4XqX7XyX7X4XyX4X4X4X4X4X4XrXuXuXuXuXuXuXuXuXuXuXuXuXuXuXuXuXuXuX",
"uXuXuXuXuXuXuXuXuXuXuXuXuXuXuXuXuXuXuXuXuXuXuXuXK K F J uXuXuXuXuXuXuXuXuXuXuXJ < 6 y.l.j.l.k.n.k.j.$.@.%.O.%.$.#.;.P I L L L F L J , 1 5 1 5 1 5 1 s s b uXuXuXuXuXuXuXuXuXuXuXp j S g uXuXuXuXuXuXuXuXG.K.L.).).K.J.F.J.P.Q.).).|.).).).).)._.).3X9X2X7XqX4XqX7X4X7X4XqX4XqX7X4X7X4X4X7X9X*XuXuXuXuXuXuXuXuXuXuXuXuXuXuXuXuXuX",
"uXuXuXuXuXuXuXuXuXuXuXuXuXuXuXuXuXuXuXuXuXuXuXuXF K F F uXuXuXuXuXuXuXuXuXuXuXj t 6 y.q.j.j.l.j.n.j.*.#.%.$.$.#.$.$.P I L I U F L J 1 1 5 3 1 3 3 1 s s f uXuXuXuXuXuXuXuXuXuXuXuXg F A m uXuXuXuXuXuXuXh.U.|.).Q.L.K.J.J.P.).).).).).). X).).|.).*X9X9X4X4X7X4X7X4X7X9X4X4X4X7X4X4X4X4X4X4XtXuXuXuXuXuXuXuXuXuXuXuXuXuXuXuXuXuX",
"uXuXuXuXuXuXuXuXuXuXuXuXuXuXuXuXuXuXuXuXuXuXuX) T F F uXuXuXuXuXuXuXuXuXuXuXuX7 5 7 y.j.n.k.n.j.j.j.*.#.$.$.$.$.$.#.P I L I L I I J 1 3 5 3 3 1 5 3 9 h t uXuXuXuXuXuXuXuXuXuXuXuXv D g J uXuXuXuXuXuXuXuX X|.|.).J.F.J.J.J.Q.|.`.Q.).`.).|.`.).).).rXqX7XqX4XyX4XyX4XqXyX4XqX4X4X4X0X4X4X4X9X:XuXuXuXuXuXuXuXuXuXuXuXuXuXuXuXuX",
"uXuXuXuXuXuXuXuXuXuXuXuXuXuXuXuXuXuXuXuXuXuXuXK D J I uXuXuXuXuXuXuXuXuXuXuXuXs 1 d t.j.j.j.b.j.l.j.*.#.$.O.#.$.@.@.P L L H U I L K 1 3 < 5 5 3 5 1 6 s t uXuXuXuXuXuXuXuXuXuXuXuXuXj S J ! uXuXuXuXuXuXuX}.Q.).).^.J.K.J.J.^._._.(._.).)._.)._.)._.3X9X9X9X4XqX4X4XqX4XqX7XyX4X4X4X4X4X4X4X4X4XuXuXuXuXuXuXuXuXuXuXuXuXuXuXuXuX",
"uXuXuXuXuXuXuXuXuXuXuXuXuXuXuXuXuXuXuXuXuXuXL F Q D uXuXuXuXuXuXuXuXuXuXuXuXuX1 8 A M.j.b.b.b.b.n.n.;.#.%.$.#.@.@.@.P L L L L H I F 6 3 1 1 1 3 1 1 9 d s uXuXuXuXuXuXuXuXuXuXuXuXuXc D A c uXuXuXuXuXuXuXT.).).).^.K.J.J.K.^.).`.(.`._.)._.).)._.).XX8XqX9X7XyXqXyX4X4X7XrX7X4X4X4X9X4X7X4X4X4X*XuXuXuXuXuXuXuXuXuXuXuXuXuXuXuX",
"uXuXuXuXuXuXuXuXuXuXuXuXuXuXuXuXuXuXuXuXuXuXL I H K uXuXuXuXuXuXuXuXuXuXuXuXuX6 5 A ;.*.&.*.*.*.$.*.@._ _ X.P X.U U P U H L L P I F 6 6 s 6 6 6 1 6 s s 6 uXuXuXuXuXuXuXuXuXuXuXuXuXuXg D F x uXuXuXuXuXuXuX.X`.|.|.K.J.J.^.)._.)._._.]._._.)._.).)._.9XyX4X4X4X7XyX7X4X4X4XqX4X2X4X4X7X3X4X4X4X4XuXuXuXuXuXuXuXuXuXuXuXuXuXuXuX",
"uXuXuXuXuXuXuXuXuXuXuXuXuXuXuXuXuXuXuXuXuXT F K D uXuXuXuXuXuXuXuXuXuXuXuXuXuX1 6 A @.@.@.$.$.$.O.#.X._ / _ ) U U U U L P P L F I F d s d d d s s s s d s uXuXuXuXuXuXuXuXuXuXuXuXuXuXx D F D uXuXuXuXuXuXuX X~.).).^.J.^.|.).)._._.)._._._.)._.'.)._.=X4XqXqX4X4X4X4X7X4XqXqX4X4X4X4X4X2X4X2X4XqX1XuXuXuXuXuXuXuXuXuXuXuXuXuXuX",
"uXuXuXuXuXuXuXuXuXuXuXuXuXuXuXuXuXuXuXuXuXF Q D K uXuXuXuXuXuXuXuXuXuXuXuXuXuX1 6 D #.#.@.#.;.@.$.$.+._ P _ _ _ U _ I L I I L L L F 7 d d 7 9 s 9 s s 7 d uXuXuXuXuXuXuXuXuXuXuXuXuXuXuXg F D m uXuXuXuXuXuX!..X_..X(.(.).). X_._.`.]._.`.'.`.).).).]..X4X9X4X7XyX4X4X4X4X4X7XyXqX7X9X4XqX4XqXrX4X9XuXuXuXuXuXuXuXuXuXuXuXuXuXuX",
"uXuXuXuXuXuXuXuXuXuXuXuXuXuXuXuXuXuXuXuXR F F F uXuXuXuXuXuXuXuXuXuXuXuXuXuXuX1 6 J O.$.$.$.O.$.$.#._ U P _ U P U _ / I L L F ^ L L A 7 7 d d 7 6 9 h d d uXuXuXuXuXuXuXuXuXuXuXuXuXuXuXb D H J uXuXuXuXuXuXs._.).`._.).).(.)..X_.).).).'._._.).(.)..X).1XqXqX4X7X7XqX4XyX4X7X4X4XqXqX4X4X4X4X4X7X0X3XuXuXuXuXuXuXuXuXuXuXuXuXuX",
"uXuXuXuXuXuXuXuXuXuXuXuXuXuXuXuXuXuXuXuXT L F F uXuXuXuXuXuXuXuXuXuXuXuXuXuXuXs 8 I @.@.$.@.@.@.@.#.X.U  ._ _ P _ U I I ) L L I L I 7 j d d 9 d s d h d s uXuXuXuXuXuXuXuXuXuXuXuXuXuXuXuXA D J <.uXuXuXuXuXuX_.|.).)._.'.).)._.`.(._._.).).'._.).).)._.XXrX4XqXqXyX7X4X7XqXyX4XqXqX4X4X3X4X4X7X4X8XrXuXuXuXuXuXuXuXuXuXuXuXuXuX",
"uXuXuXuXuXuXuXuXuXuXuXuXuXuXuXuXuXuXuXR I J D uXuXuXuXuXuXuXuXuXuXuXuXuXuXuXuX1 8 I #.@.$.*...@.$.#._ U U _ U U U ) P I ) L ) F L L 7 j 7 d d 6 6 d j d d uXuXuXuXuXuXuXuXuXuXuXuXuXuXuXuXn D L D uXuXuXuXuXuX X).).).`.)._.).)._._._.).'.).).).).(.].'._.0X4XqXqXqXrXqXqX4X4X7X4X4X4X7X7X4XqX7X9X9X9X;XuXuXuXuXuXuXuXuXuXuXuXuX",
"uXuXuXuXuXuXuXuXuXuXuXuXuXuXuXuXuXuXuXF F F T uXuXuXuXuXuXuXuXuXuXuXuXuXuXuXuX6 9 I @.@.;.$.@.;.O.@._ U _ _ P P / ) I / I I ) L L I d d d 6 d 7 7 d 9 d s m uXuXuXuXuXuXuXuXuXuXuXuXuXuXuXuXD J T ! uXuXuXuXuXE._._._._._.)._.].'._._._._.).)._.`.).).'.].=X9X7X7XqX9X9X4XyXqX4X4X9X4XyX7X4X4X7X4X4X2X4XuXuXuXuXuXuXuXuXuXuXuXuX",
"uXuXuXuXuXuXuXuXuXuXuXuXuXuXuXuXuXuXY I K S uXuXuXuXuXuXuXuXuXuXuXuXuXuXuXuXuX9 9 _ @.$.$.@.@.;.$.@. .{ P ) U ) P / ) I I / ) F L L d 7 7 d 6 d d s 6 d j n uXuXuXuXuXuXuXuXuXuXuXuXuXuXuXuXb J K F uXuXuXuXuXuX_._.)._.)._.).)._._.(.`._._.)._._._.)._.'.].0XyXqXqX9XqX7XyX7XqX4X7X7X4X4XqX9X4X4XqXwX2X3XuXuXuXuXuXuXuXuXuXuXuX",
"uXuXuXuXuXuXuXuXuXuXuXuXuXuXuXuXuXuXK K K ` uXuXuXuXuXuXuXuXuXuXuXuXuXuXuXuXuXh 9 ) #.$.;.@.@.@.@.@.U U / / U _ _ ) P I ) I L L I L d d s d d 6 d s s d d v uXuXuXuXuXuXuXuXuXuXuXuXuXuXuXuXuXY F F 9.uXuXuXuXuX$X_.)._.).).'.).)._.).].).].).)._.)._._.).).;X9XqX4XqX4X7X4XqX7X4XyXqX4XqX4X4X4X4XqXwX9X4X*XuXuXuXuXuXuXuXuXuXuX",
"uXuXuXuXuXuXuXuXuXuXuXuXuXuXuXuXuXR K I Y uXuXuXuXuXuXuXuXuXuXuXuXuXuXuXuXuXk h 9 _ $.$.@.@.@.@.#.@.U +.U _ _ P U / ) P I L F ^ L L d d d 6 s 7 6 s d d d v uXuXuXuXuXuXuXuXuXuXuXuXuXuXuXuXuXm F K T uXuXuXuXuXR._._.`._.).]._.).).(._.).).'.)._.).'._.)._.[.8XqXqXqXqXqX4X4XyX4XqX4X7XyX9X4X4XqX4X9X9X2X0XuXuXuXuXuXuXuXuXuXuX",
"uXuXuXuXuXuXuXuXuXuXuXuXuXuXuXuXuXD F L R uXuXuXuXuXuXuXuXuXuXuXuXuXuXuXuXuXy s j +.@.@.@.@.@.@.O.@.+.U _ _ / P U _ ) / I / ^ L L I A 9 s h s d s 9 s j d f uXuXuXuXuXuXuXuXuXuXuXuXuXuXuXuXuXuXY I F ! uXuXuXuXg.`.)._._._._._.'._._.(._.`._._._._._._._._.).3X4XqXqXqXqX4X4XqXqXqX7XqX2XqX9X9XqXqX9X4XqX2X!.uXuXuXuXuXuXuXuXuX",
"uXuXuXuXuXuXuXuXuXuXuXuXuXuXuXuXR F F D uXuXuXuXuXuXuXuXuXuXuXuXuXuXuXuXuXuXy s d $.=.0.*.0.=.=.*.*.X._ _ _ / _ / / X.) / / _ ^ X.U 7 6 6 6 6 s 6 8 7 d d t uXuXuXuXuXuXuXuXuXuXuXuXuXuXuXuXuXuX7.I I T uXuXuXuXuX_.)._._._.)._._._.`._._._.(._._._._.)._.`.).%X4XqXqXqXyX7XqX4XqXqXqXqXqX2XwXqX9X2XwX2X2X2X0XuXuXuXuXuXuXuXuXuX",
"uXuXuXuXuXuXuXuXuXuXuXuXuXuXuXuXF F F 1.uXuXuXuXuXuXuXuXuXuXuXuXuXuXuXuXuXuXb d A n.j.j.n.n.l.n.m.M.X.-.#._ +._ @._ @.#.#.#.#.;.$.;.7 1 1 1 6 1 1 1 6 d j s uXuXuXuXuXuXuXuXuXuXuXuXuXuXuXuXuXuXuXT I K 6.uXuXuXuX~.]._.`.).].).)._._._.)._._.`.)._.`._._.).`._.9XyXyXqXyXyX4X7XqXqXqX2XqX2X2XwX8XqX2X9X4X8X8X:XuXuXuXuXuXuXuXuX",
"uXuXuXuXuXuXuXuXuXuXuXuXuXuXuXR F K F uXuXuXuXuXuXuXuXuXuXuXuXuXuXuXuXuXuXuXb d d n.k.k.k.j.k.l.n.n.X._ _ @.+.#._ @.@.+.O.$.#.%.&.;.7 5 5 5 3 1 1 5 6 d s f uXuXuXuXuXuXuXuXuXuXuXuXuXuXuXuXuXuXuXb ) ) T uXuXuXuX!._._.`.~.).)._.)._._._.'.)._.)._.'._._.).).).=XyXqXqX4X7XyX9XqX8XwXqX8X6XqXqXqXwXwXqX2X2X2X9XuXuXuXuXuXuXuXuX",
"uXuXuXuXuXuXuXuXuXuXuXuXuXuXuXD H K Y uXuXuXuXuXuXuXuXuXuXuXuXuXuXuXuXuXuXuXb d A n.l.l.l.l.l.l.j.n.o.+.+.+.+.+._ X.@.%.$.O.O.$.$.;.G 5 1 1 1 8 1 5 6 d h s uXuXuXuXuXuXuXuXuXuXuXuXuXuXuXuXuXuXuXuXT I ^ ! uXuXuXuX`._.`.)._._.).(.)._.(.]._.`._._.]._._.'._._.XXrX7X9X7X4X9XqX4XwXqXqXqX6XqX2XqX2XqX2X2X2X8X2X,XuXuXuXuXuXuXuX",
"uXuXuXuXuXuXuXuXuXuXuXuXuXuXg K K D n uXuXuXuXuXuXuXuXuXuXuXuXuXuXuXuXuXuXuXc d S n.k.n.l.z.l.l.j.n.o._ +.+._ +.+.+.+.$.O.#.$.$.O.@.J 5 1 1 5 1 1 1 1 s h d uXuXuXuXuXuXuXuXuXuXuXuXuXuXuXuXuXuXuXuX1.L T T uXuXuXuX~.'.`._.).(.).).]._.`._.)._.)._.`.).).)._.).).4XqXqX7XqXqX4XqXqX2X2XqX8XqXqX2XqX8XqXqX2X8XqX9XuXuXuXuXuXuXuX",
"uXuXuXuXuXuXuXuXuXuXuXuXuXuXD K D D uXuXuXuXuXuXuXuXuXuXuXuXuXuXuXuXuXuXuXuXg d K n.z.z.x.k.k.l.j.n.o.+._ +.+.+.+._ %.%.$.$.%.#.&.;.H 1 1 1 5 5 1 1 h d h s uXuXuXuXuXuXuXuXuXuXuXuXuXuXuXuXuXuXuXuXuXT T ) uXuXuXuX!._.)._._._._._._.).'.`._._.)._.)._.).'.).|.).XXqX4XqX4X4X4XqX4X2X2X8X2X4X4XwXqX2X2X7X8XwX9X9X,XuXuXuXuXuXuX",
"uXuXuXuXuXuXuXuXuXuXuXuXuXR J F J n uXuXuXuXuXuX` ' ^ ' ' 3.' ` ' ` ^ ^ ) I d d ) n.z.l.l.l.l.l.k.n.X._ _ +._ _ _ X.+.O.#.#.O.#.;.#.H 1 1 1 1 1 8 1 1 h d d J T F F T T F F T T F T ^ E uXuXuXuXuXuXuXc Q L ^ uXuXuXf.`.'.).)._._.).).'.`._.(._.)._._._.).|.)..X'.).3X4X7X9X4XqXwX7XqX4XqXqX7X4X2X4X4XqX4XwXqX8XyX9XuXuXuXuXuXuX",
"uXuXuXuXuXuXuXuXuXuXuXuXuXY H F A uXuXuXuXuXuXb ^ _ +._ _ _ ^ _ / _ U P P ) d d { M.k.m.m.l.l.m.j.M.o.+.+.+.+._ _ _ o.%.#.#.$.$.;.$.H 5 1 1 1 1 5 6 1 9 d 7 J I F L ) I F F ) F I L I L Y uXuXuXuXuXuXuXF F ^ uXuXuXuX`..X)._.)._._._._.`._.)._.`.).)._.'.`.`._.)._.1X2X6X2X9X9XqX4XqX4X4X4X4XqXqX4X4X7X4X9XqX4X2XqX0XuXuXuXuXuX",
"uXuXuXuXuXuXuXuXuXuXuXuXn F J F <.uXuXuXuXuXuX3._ ' _ +.+._ +._ _ / +._ _ ) A d { n.k.j.k.l.l.l.j.M.X._ +._ +._ _ X.%.#.#.$.#.$.$.@.K 5 1 5 1 1 1 5 1 s 9 7 J L F L F L I I K ) L I U I T uXuXuXuXuXuXuX1.^ K ~ uXuXuX X).]._.].)._.`._._._.]._.)._._._.`.(._.).)._.XX9XwX8X4X9XqXqX4X2XqX9X4X4X4XqXqXqX9X8X4X7XwXqX9X!.uXuXuXuX",
"uXuXuXuXuXuXuXuXuXuXuXuXD F F Y uXuXuXuXuXuXuX^ ) -.+.+.+._ _ X.+.+._ X._ U d d _ n.j.l.l.l.l.m.k.n.X.X._ +.X._ _ _ #.$.$.#.O.#.*.@.K 1 1 1 5 1 1 5 1 6 6 d J I ^ L I L ) I ) K F U I I L uXuXuXuXuXuXuXuXF K ^ uXuXuXT. X_.)._.(._.)._._.)._._._._._._._._._._._.).].3X9XqXqX4X4XqXqX4X4X4X4XqX4XqX4X4X4X8X6X7X8X8XqXtXuXuXuXuX",
"uXuXuXuXuXuXuXuXuXuXuX7.J H J 1.uXuXuXuXuXuXuX) +.+._ +._ +._ _ +._ X._ U I d A _ q.x.m.m.l.l.l.n.n.X.+._ +._ X._ X.+.#.@.#.O.O.;.#.K 6 1 1 8 1 5 1 1 6 6 d G L F I Q F F L F L I L U I I ~ uXuXuXuXuXuXuXE ^ ) 3.uXuXuX).).)._.`._._._._._._._._._._._._._._._.'.`.).*X9XqXqX4X4XqX4XqX7X9XqXqXqXqX4X4XqX2X6X6X9X9X9X9X&XuXuXuX",
"uXuXuXuXuXuXuXuXuXuXuXD F J D uXuXuXuXuXuXuX3._ _ _ _ _ +._ / _ _ _ _ _ _ I A d -.0.j.j.z.n.n.j.n.b.X._ _ +._ _ _ / +.%.#.@.#.O.#.#.) 5 1 1 1 5 6 1 1 9 d d G I F F U F F L L I K L L L L F uXuXuXuXuXuXuXuXF ) T uXuXuX`.). X).'.'._._.)._._._._.`.'.'.'.'._._.).).)._.4X3XqX8XqX7X4XqX9X4X4X9X4X7X4X4X4XqX2X2XqX8X2X6X9XuXuXuX",
"uXuXuXuXuXuXuXuXuXuX! J D K c uXuXuXuXuXuXuX( +.+._ +._ _ _ _ _ +.X.+.+._ K A A #.q.x.l.l.k.k.l.n.b.X.X.X.P _ _ +._ +.@.#.@.O.#.%.$.Q 5 1 5 6 u 1 5 1 s h d J L U I F F I K I F I I K L F I uXuXuXuXuXuXuXuXE ) I R uXuXT.).)._._._.`._._._.)._._.`._._.'._.'.)._.`._._.=X4XqX2X4XqXwXqXqXqXwXwX9XqXwX2X2XqXqX8XwXqX6XqX8X>XuXuX",
"uXuXuXuXuXuXuXuXuXuXc D D G uXuXuXuXuXuXuXuX` _ +._ _ +.+._ / +._ +.+.+.+.F G S ' q.j.m.l.z.k.m.n.t. ._ U _ _ _ / / @.+.#.#.O.O.%.$.) 6 6 1 1 6 1 1 5 6 6 s A I I S I H I F I F L F I F L F g uXuXuXuXuXuXuXuXL I T uXuXd._.)._._.`.)._.).`.`.'._._._._._._._._._.'.)._.[.rX4X2X9XqXqX2XqXqXqXqXqX9X2XqX6XqX6X8XwXqXwXwX9X9XuXuX",
"uXuXuXuXuXuXuXuXuXuXA D D c uXuXuXuXuXuXuX4.^ +._ #._ _ _ _ +._ _ +._ +.X.L G S 0.q.q.n.l.m.k.j.n.t.X._ +.X._ / _ / +.%.o.%.O.#.#.O.) 1 1 5 1 6 1 1 t 1 9 7 A U F I I I F F L K F ) F L I I Y uXuXuXuXuXuXuXuXQ ) L uXuXuX X)._._._.]._._.(.'.'._.'.'.`._._._.).)._.).(.(.1X7XqX9X9XqX8X2X2X2XqXqXqXqX2X8X2XqXqX8X8XqX7X8X9X,XuX"
};
